!!!!SEGMENT: pl-wn--mus-iii-65-947-cim--028_sowinski-wojciech--swiety-wojciech-meczennik-no-26-modlitwa.krn
!!!cenid: 18xx:3621
!!!COM: Sowiński, Wojciech
!!!COM-rismID: pe30008543
!!!CDT: ~1803-1880/03/05
!!!CNT:
!!!GTL: Święty Wojciech męczennik
!!!OTL: No. 26. Modlitwa
!!!OMV: 028
!!!PDT: 1877
!!!AGN:
!!!SMS-siglum: PL-Wn
!!!SMS-shelfmark: Mus.III.65.947 Cim.
!!!SMS-shelfwork: 001-028 G
!!!SMS-variant:
!!!SMS-altvar:
!!!NIFC-rismSourceID:
!!!NIFC-rismChildID:
!!!NIFC-islandoraID: none
!!!URL-pdf-islandora:
!!!URL-scan: https://polona.pl/item/swiety-wojciech-meczennik-oratorjo-w-trzech-czesciach-dzielo-66-spiew-z-fortepianem,MTkzODI1Mzc/242/#item @EN{Scan on Polona} @PL{Skany w portalu Polona}
!!!IIIF: https://polona.pl/iiif/item/MTkzODI1Mzc/manifest.json
!!!ONB-nifc: UWAGA: oratorium zawiera w źródle 28 numerów podzielonych na 30 plików (rozdzielenie w No. 6 - osobno Recitativo oraz Aria matki i No. 10 - osobno Recitativo, arja i chór oraz Sen). Polecam widok miniatur na Polonie. Uwaga co do obsady: prosimy umieszczać tylko partie występujące w danym numerze (nie całą obsadę oratorium)
!!!AIN: 2 alto 2 bass 1 piano 2 soprn 2 tenor
!!!key: E-
**kern	**kern	**dynam	**kern	**text	**dynam	**kern	**text	**dynam	**kern	**text	**dynam	**kern	**text	**dynam	**kern	**text	**dynam	**kern	**text	**kern	**text	**dynam	**kern	**text	**dynam
*part9	*part9	*part9	*part8	*part8	*part8	*part7	*part7	*part7	*part6	*part6	*part6	*part5	*part5	*part5	*part4	*part4	*part4	*part3	*part3	*part2	*part2	*part2	*part1	*part1	*part1
*staff10	*staff9	*	*staff8	*staff8	*	*staff7	*staff7	*	*staff6	*staff6	*	*staff5	*staff5	*	*staff4	*staff4	*	*staff3	*staff3	*staff2	*staff2	*	*staff1	*staff1	*
*	*IGacmp	*	*IGcoro	*	*	*IGcoro	*	*	*IGcoro	*	*	*IGcoro	*	*	*IGsolo	*	*	*IGsolo	*	*IGsolo	*	*	*IGsolo	*	*
*	*ICklav	*	*ICvox	*	*	*ICvox	*	*	*ICvox	*	*	*ICvox	*	*	*ICvox	*	*	*ICvox	*	*ICvox	*	*	*ICvox	*	*
*	*Ipiano	*	*Ibass	*	*	*Itenor	*	*	*Ialto	*	*	*Isoprn	*	*	*Ibass	*	*	*Itenor	*	*Ialto	*	*	*Isoprn	*	*
*	*I"PIANO	*	*I"Basso	*	*	*I"Tenore	*	*	*I"Alto	*	*	*I"Canto	*	*	*I"Ś. WOJCIECH	*	*	*I"BORUS.	*	*I"MATKA	*	*	*I"BRANKA	*	*
*	*	*	*	*	*	*ITrd8c12	*	*	*	*	*	*	*	*	*	*	*	*ITrd8c12	*	*	*	*	*	*	*
*clefF4	*clefG2	*	*clefF4	*	*	*clefG2	*	*	*clefG2	*	*	*clefG2	*	*	*clefF4	*	*	*clefG2	*	*clefG2	*	*	*clefG2	*	*
*k[b-e-a-]	*k[b-e-a-]	*	*k[b-e-a-]	*	*	*k[b-e-a-]	*	*	*k[b-e-a-]	*	*	*k[b-e-a-]	*	*	*k[b-e-a-]	*	*	*k[b-e-a-]	*	*k[b-e-a-]	*	*	*k[b-e-a-]	*	*
*E-:	*E-:	*	*E-:	*	*	*E-:	*	*	*E-:	*	*	*E-:	*	*	*E-:	*	*	*E-:	*	*E-:	*	*	*E-:	*	*
*M4/4	*M4/4	*	*M4/4	*	*	*M4/4	*	*	*M4/4	*	*	*M4/4	*	*	*M4/4	*	*	*M4/4	*	*M4/4	*	*	*M4/4	*	*
=1	=1	=1	=1	=1	=1	=1	=1	=1	=1	=1	=1	=1	=1	=1	=1	=1	=1	=1	=1	=1	=1	=1	=1	=1	=1
*xywh-204:385,1096,2008,380	*	*	*	*	*	*	*	*	*	*	*	*	*	*	*	*	*	*	*	*	*	*	*	*	*
*	*xywh-204:385,1096,2008,380	*	*	*	*	*	*	*	*	*	*	*	*	*	*	*	*	*	*	*	*	*	*	*	*
*	*	*	*	*	*	*	*	*	*	*	*	*	*	*	*xywh-204:391,919,1996,233	*	*	*	*	*	*	*	*	*	*
*	*	*	*	*	*	*	*	*	*	*	*	*	*	*	*	*	*	*	*	*xywh-204:451,784,1927,212	*	*	*	*	*
*	*	*	*	*	*	*	*	*	*	*	*	*	*	*	*	*	*	*	*	*	*	*	*xywh-204:382,139,2056,686	*	*
!	!	!	!	!	!	!	!	!	!	!	!	!	!	!	!	!	!	!	!	!	!	!	!	!	!LO:HP:a
!	!LO:TX:a:t=Andante.	!LO:DY:b:rj	!	!	!	!	!	!	!	!	!	!	!	!	!	!	!LO:DY:b:rj	!	!	!	!	!LO:DY:b:rj	!LO:TX:a:t=Andante.	!	!LO:DY:b:rj
2E-\ 2G 2B-	(8b-\L	p	1ryy	.	.	1ryy	.	.	1ryy	.	.	1ryy	.	.	4E-\	Mat-	p <	1ryy	.	4g/	Mat-	p <	4b-\	Mat-	p <
!	!LO:TX:b:t=con sordino.	!	!	!	!	!	!	!	!	!	!	!	!	!	!	!	!	!	!	!	!	!	!	!	!
.	8cc\)	.	.	.	.	.	.	.	.	.	.	.	.	.	.	.	.	.	.	.	.	.	.	.	.
.	8dd'\	.	.	.	.	.	.	.	.	.	.	.	.	.	4E-\	-ko	.	.	.	4g/	-ko	.	4ee-\	-ko	.
.	8ee-'\J	.	.	.	.	.	.	.	.	.	.	.	.	.	.	.	.	.	.	.	.	.	.	.	.
4E-\ 4G 4B-	(8ff\L	.	.	.	.	.	.	.	.	.	.	.	.	.	4E-\	świę-	.	.	.	4g/	świę-	.	4ee-\	świę-	.
.	8ee-\)	.	.	.	.	.	.	.	.	.	.	.	.	.	.	.	.	.	.	.	.	.	.	.	.
4E-\ 4G 4B-	8gg'\	.	.	.	.	.	.	.	.	.	.	.	.	.	4E-\	-ta	[[	.	.	4g/	-ta	[[	4ee-\	-ta	[[
.	8ee-'\J	.	.	.	.	.	.	.	.	.	.	.	.	.	.	.	.	.	.	.	.	.	.	.	.
=2	=2	=2	=2	=2	=2	=2	=2	=2	=2	=2	=2	=2	=2	=2	=2	=2	=2	=2	=2	=2	=2	=2	=2	=2	=2
2E-\ 2G 2B-	(8b-\L	.	1ryy	.	.	1ryy	.	.	1ryy	.	.	1ryy	.	.	4E-\	mat-	.	1ryy	.	(4g/	mat-	.	(4ee-\	mat-	.
.	8ee-\)	.	.	.	.	.	.	.	.	.	.	.	.	.	.	.	.	.	.	.	.	.	.	.	.
.	8dd'\	.	.	.	.	.	.	.	.	.	.	.	.	.	4B-\	-ko	.	.	.	8a-/)	.	.	8dd\)	.	.
.	8ee-'\J	.	.	.	.	.	.	.	.	.	.	.	.	.	.	.	>	.	.	8g/	-ko	>	8ee-\	-ko	<
2BB-\ 2F 2A- 2B-	(8dd\L	>	.	.	.	.	.	.	.	.	.	.	.	.	(4BB-/	mi-	.	.	.	2a-/	mi-	.	2ff\	mi-	.
.	8ff\)	.	.	.	.	.	.	.	.	.	.	.	.	.	.	.	.	.	.	.	.	.	.	.	.
.	8bb-'\	.	.	.	.	.	.	.	.	.	.	.	.	.	4D/)	.	.	.	.	.	.	.	.	.	.
.	8aa-'\J	]]	.	.	.	.	.	.	.	.	.	.	.	.	.	.	.	.	.	.	.	.	.	.	.
=3	=3	=3	=3	=3	=3	=3	=3	=3	=3	=3	=3	=3	=3	=3	=3	=3	=3	=3	=3	=3	=3	=3	=3	=3	=3
[2E-\ [2G [2B-	(8gg\L	.	1ryy	.	.	1ryy	.	.	1ryy	.	.	1ryy	.	.	2E-\	-ła,	]	1ryy	.	2g/	-ła,	]	2ee-\	-ła,	]
.	8ff\)	.	.	.	.	.	.	.	.	.	.	.	.	.	.	.	.	.	.	.	.	.	.	.	.
.	8ee-'\	.	.	.	.	.	.	.	.	.	.	.	.	.	.	.	.	.	.	.	.	.	.	.	.
.	8dd'\J	.	.	.	.	.	.	.	.	.	.	.	.	.	.	.	.	.	.	.	.	.	.	.	.
4E-\] 4G] 4B-]	(8ee-\L	.	.	.	.	.	.	.	.	.	.	.	.	.	2r	.	.	.	.	2r	.	.	2r	.	.
.	8g\	.	.	.	.	.	.	.	.	.	.	.	.	.	.	.	.	.	.	.	.	.	.	.	.
4r	8a-\)	.	.	.	.	.	.	.	.	.	.	.	.	.	.	.	.	.	.	.	.	.	.	.	.
.	8an'\J	.	.	.	.	.	.	.	.	.	.	.	.	.	.	.	.	.	.	.	.	.	.	.	.
=4	=4	=4	=4	=4	=4	=4	=4	=4	=4	=4	=4	=4	=4	=4	=4	=4	=4	=4	=4	=4	=4	=4	=4	=4	=4
!!linebreak:original
*xywh-204:427,1956,1960,398	*	*	*	*	*	*	*	*	*	*	*	*	*	*	*	*	*	*	*	*	*	*	*	*	*
*	*xywh-204:427,1956,1960,398	*	*	*	*	*	*	*	*	*	*	*	*	*	*	*	*	*	*	*	*	*	*	*	*
*	*	*	*	*	*	*	*	*	*	*	*	*	*	*	*xywh-204:427,1806,1945,200	*	*	*	*	*	*	*	*	*	*
*	*	*	*	*	*	*	*	*	*	*	*	*	*	*	*	*	*	*	*	*xywh-204:436,1623,1939,221	*	*	*	*	*
*	*	*	*	*	*	*	*	*	*	*	*	*	*	*	*	*	*	*	*	*	*	*	*xywh-204:463,1473,1948,209	*	*
!	!	!LO:DY:b:rj	!	!	!	!	!	!	!	!	!	!	!	!	!	!	!	!	!	!	!	!	!	!	!
2.E-\ 2.G 2.B-	(8b-\L	p	1ryy	.	.	1ryy	.	.	1ryy	.	.	1ryy	.	.	4E-\	tęs-	.	1ryy	.	4g/	tęs-	.	4b-\	tęs-	.
.	8cc\)	.	.	.	.	.	.	.	.	.	.	.	.	.	.	.	.	.	.	.	.	.	.	.	.
.	8dd\	.	.	.	.	.	.	.	.	.	.	.	.	.	4E-\	-knéj	.	.	.	4g/	-knéj	.	4ee-\	-knéj	.
.	8ee-\J	.	.	.	.	.	.	.	.	.	.	.	.	.	.	.	.	.	.	.	.	.	.	.	.
.	8ff\L	.	.	.	.	.	.	.	.	.	.	.	.	.	4E-\	du-	.	.	.	4g/	du-	.	4ee-\	du-	.
.	8ee-\	.	.	.	.	.	.	.	.	.	.	.	.	.	.	.	.	.	.	.	.	.	.	.	.
4E-\ 4G 4B-	8gg\	.	.	.	.	.	.	.	.	.	.	.	.	.	4E-\	-szy	.	.	.	4g/	-szy	.	4ee-\	-szy	.
.	8ee-\J	.	.	.	.	.	.	.	.	.	.	.	.	.	.	.	.	.	.	.	.	.	.	.	.
=5	=5	=5	=5	=5	=5	=5	=5	=5	=5	=5	=5	=5	=5	=5	=5	=5	=5	=5	=5	=5	=5	=5	=5	=5	=5
2E-\ 2G	(8b-\L	.	1ryy	.	.	1ryy	.	.	1ryy	.	.	1ryy	.	.	2E-\	wie-	.	1ryy	.	(4g/	wie-	.	(4ee-\	wie-	.
.	8ee-\)	.	.	.	.	.	.	.	.	.	.	.	.	.	.	.	.	.	.	.	.	.	.	.	.
.	8dd'\	.	.	.	.	.	.	.	.	.	.	.	.	.	.	.	.	.	.	8f/)	.	.	8dd\)	.	.
.	8cc'\J	.	.	.	.	.	.	.	.	.	.	.	.	.	.	.	.	.	.	8e-/	-czna	.	8cc\	-czna	.
2D\ 2F 2G 2Bn^	(8bn\L	.	.	.	.	.	.	.	.	.	.	.	.	.	4GG/	-czna	.	.	.	(4..f/	chlu-	.	(>4..dd^>\	chlu-	.
!	!	!	!	!	!	!	!	!	!	!	!	!	!	!	!	!	!LO:HP:a:t=dim.	!	!	!	!	!LO:HP:a:t=dim.	!	!	!LO:HP:a:t=dim.
.	8gg\	.	.	.	.	.	.	.	.	.	.	.	.	.	.	.	>	.	.	.	.	>	.	.	>
.	8aa-\	.	.	.	.	.	.	.	.	.	.	.	.	.	(8.AA-/L	chlu-	.	.	.	.	.	.	.	.	.
.	8gg\J)	.	.	.	.	.	.	.	.	.	.	.	.	.	.	.	.	.	.	.	.	.	.	.	.
.	.	.	.	.	.	.	.	.	.	.	.	.	.	.	16BBn/Jk)	.	.	.	.	16e-/)	.	.	16cc\)	.	.
=6	=6	=6	=6	=6	=6	=6	=6	=6	=6	=6	=6	=6	=6	=6	=6	=6	=6	=6	=6	=6	=6	=6	=6	=6	=6
[2C\ [2E- [2G [2c	(8cc\L	.	1ryy	.	.	1ryy	.	.	1ryy	.	.	1ryy	.	.	2C/	-bo;	.	1ryy	.	2e-/	-bo;	.	2cc\	-bo;	.
.	8gg\	.	.	.	.	.	.	.	.	.	.	.	.	.	.	.	.	.	.	.	.	.	.	.	.
.	8ccc\	.	.	.	.	.	.	.	.	.	.	.	.	.	.	.	.	.	.	.	.	.	.	.	.
.	8gg\J	.	.	.	.	.	.	.	.	.	.	.	.	.	.	.	.	.	.	.	.	.	.	.	.
4C\] 4E-] 4G] 4c]	8ff\L	.	.	.	.	.	.	.	.	.	.	.	.	.	2r	.	.	.	.	2r	.	.	2r	.	.
.	8ee-\	.	.	.	.	.	.	.	.	.	.	.	.	.	.	.	.	.	.	.	.	.	.	.	.
4r	8dd\	.	.	.	.	.	.	.	.	.	.	.	.	.	.	.	.	.	.	.	.	.	.	.	.
.	8cc\J)	.	.	.	.	.	.	.	.	.	.	.	.	.	.	.	.	.	.	.	.	.	.	.	.
=7	=7	=7	=7	=7	=7	=7	=7	=7	=7	=7	=7	=7	=7	=7	=7	=7	=7	=7	=7	=7	=7	=7	=7	=7	=7
!!linebreak:original
*xywh-204:445,2819,1930,377	*	*	*	*	*	*	*	*	*	*	*	*	*	*	*	*	*	*	*	*	*	*	*	*	*
*	*xywh-204:445,2819,1930,377	*	*	*	*	*	*	*	*	*	*	*	*	*	*	*	*	*	*	*	*	*	*	*	*
*	*	*	*	*	*	*	*	*	*	*	*	*	*	*	*xywh-204:463,2669,1906,191	*	*	*	*	*	*	*	*	*	*
*	*	*	*	*	*	*	*	*	*	*	*	*	*	*	*	*	*	*	*	*xywh-204:469,2519,1891,182	*	*	*	*	*
*	*	*	*	*	*	*	*	*	*	*	*	*	*	*	*	*	*	*	*	*	*	*	*xywh-204:448,2360,1945,182	*	*
!	!	!LO:DY:b:rj	!	!	!	!	!	!	!	!	!	!	!	!	!	!	!	!	!	!	!	!	!	!	!
2EE-/ 2E-	(8b-\L	p	1ryy	.	.	1ryy	.	.	1ryy	.	.	1ryy	.	.	4E-\	w to-	.	1ryy	.	4b-\	w to-	.	4g/	w to-	.
.	8cc\)	.	.	.	.	.	.	.	.	.	.	.	.	.	.	.	.	.	.	.	.	.	.	.	.
.	8dd'\	.	.	.	.	.	.	.	.	.	.	.	.	.	4E-\	-bie	.	.	.	4ee-\	-bie	.	4g/	-bie	.
.	8ee-'\J	.	.	.	.	.	.	.	.	.	.	.	.	.	.	.	.	.	.	.	.	.	.	.	.
4E-\ 4G 4B-	(8ff\L	.	.	.	.	.	.	.	.	.	.	.	.	.	4E-\	wia-	.	.	.	4ee-\	wia-	.	4g/	wia-	.
.	8ee-\)	.	.	.	.	.	.	.	.	.	.	.	.	.	.	.	.	.	.	.	.	.	.	.	.
4E-\ 4G 4B-	8gg'\	.	.	.	.	.	.	.	.	.	.	.	.	.	4E-\	-ra	.	.	.	4ee-\	-ra	.	4g/	-ra	.
.	8ee-'\J	.	.	.	.	.	.	.	.	.	.	.	.	.	.	.	.	.	.	.	.	.	.	.	.
=8	=8	=8	=8	=8	=8	=8	=8	=8	=8	=8	=8	=8	=8	=8	=8	=8	=8	=8	=8	=8	=8	=8	=8	=8	=8
2E-\ 2G 2B-	(8b-\L	.	1ryy	.	.	1ryy	.	.	1ryy	.	.	1ryy	.	.	(4E-\	w to-	.	1ryy	.	(4g/	w to-	.	(4ee-\	w to-	.
.	8ee-\)	.	.	.	.	.	.	.	.	.	.	.	.	.	.	.	.	.	.	.	.	.	.	.	.
.	8dd\	.	.	.	.	.	.	.	.	.	.	.	.	.	8F\)	.	.	.	.	8an/)	.	.	8dd\)	.	.
.	8ee-\J	.	.	.	.	.	.	.	.	.	.	.	.	.	8E-\	-bie	.	.	.	8g/	-bie	.	8ee-\	-bie	.
2BB-\ 2F 2A- 2B-	(8dd\L	.	.	.	.	.	.	.	.	.	.	.	.	.	(4D\	si-	.	.	.	2a/	si-	.	2ff\	si-	.
.	8ff\)	.	.	.	.	.	.	.	.	.	.	.	.	.	.	.	.	.	.	.	.	.	.	.	.
.	8bb-\	.	.	.	.	.	.	.	.	.	.	.	.	.	4BB-\)	.	.	.	.	.	.	.	.	.	.
.	8aa-\J	.	.	.	.	.	.	.	.	.	.	.	.	.	.	.	.	.	.	.	.	.	.	.	.
=9	=9	=9	=9	=9	=9	=9	=9	=9	=9	=9	=9	=9	=9	=9	=9	=9	=9	=9	=9	=9	=9	=9	=9	=9	=9
!	!	!	!	!	!	!	!	!	!	!	!	!	!	!	!LO:TX:t=P:global:problem=brak znaku w tabeli unicode	!	!	!	!	!LO:TX:t=P:global:problem=brak znaku w tabeli unicode	!	!	!LO:TX:t=P:global:problem=brak znaku w tabeli unicode	!	!
[2E-\ [2G [2B-	(8gg\L	.	1ryy	.	.	1ryy	.	.	1ryy	.	.	1ryy	.	.	2E-\	-ła:	.	1ryy	.	2g/	-ła:	.	2ee-\	-ła:	.
.	8ff\	.	.	.	.	.	.	.	.	.	.	.	.	.	.	.	.	.	.	.	.	.	.	.	.
.	8ee-\	.	.	.	.	.	.	.	.	.	.	.	.	.	.	.	.	.	.	.	.	.	.	.	.
.	8dd\J)	.	.	.	.	.	.	.	.	.	.	.	.	.	.	.	.	.	.	.	.	.	.	.	.
4E-\] 4G] 4B-]	8ee-\L	.	.	.	.	.	.	.	.	.	.	.	.	.	2r	.	.	.	.	2r	.	.	2r	.	.
.	8b-\	.	.	.	.	.	.	.	.	.	.	.	.	.	.	.	.	.	.	.	.	.	.	.	.
.	8qdd/	.	.	.	.	.	.	.	.	.	.	.	.	.	.	.	.	.	.	.	.	.	.	.	.
4r	8cc\	.	.	.	.	.	.	.	.	.	.	.	.	.	.	.	.	.	.	.	.	.	.	.	.
.	8b-\J	.	.	.	.	.	.	.	.	.	.	.	.	.	.	.	.	.	.	.	.	.	.	.	.
=10	=10	=10	=10	=10	=10	=10	=10	=10	=10	=10	=10	=10	=10	=10	=10	=10	=10	=10	=10	=10	=10	=10	=10	=10	=10
!!pagebreak:original
*^	*	*	*	*	*	*	*	*	*	*	*	*	*	*	*	*	*	*	*	*	*	*	*	*	*
*xywh-205:105,790,1981,428	*	*	*	*	*	*	*	*	*	*	*	*	*	*	*	*	*	*	*	*	*	*	*	*	*	*
*	*xywh-205:105,790,1981,428	*	*	*	*	*	*	*	*	*	*	*	*	*	*	*	*	*	*	*	*	*	*	*	*	*
*	*	*xywh-205:105,790,1981,428	*	*	*	*	*	*	*	*	*	*	*	*	*	*	*	*	*	*	*	*	*	*	*	*
*	*	*	*	*	*	*	*	*	*	*	*	*	*	*	*	*xywh-205:138,619,1963,215	*	*	*	*	*	*	*	*	*	*
*	*	*	*	*	*	*	*	*	*	*	*	*	*	*	*	*	*	*	*	*	*xywh-205:135,448,1960,215	*	*	*	*	*
*	*	*	*	*	*	*	*	*	*	*	*	*	*	*	*	*	*	*	*	*	*	*	*	*xywh-205:144,127,2044,359	*	*
2E-\ 2G 2B-	2ryy	(8g\L	.	1ryy	.	.	1ryy	.	.	1ryy	.	.	1ryy	.	.	4E-\	z baw	.	1ryy	.	4b-\	z baw	.	4g\	z baw	.
.	.	8b-\)	.	.	.	.	.	.	.	.	.	.	.	.	.	.	.	.	.	.	.	.	.	.	.	.
.	.	8cc'\	.	.	.	.	.	.	.	.	.	.	.	.	.	4E-\	nas	.	.	.	4ee-\	nas	.	4g\	nas	.
.	.	8dd'\J	.	.	.	.	.	.	.	.	.	.	.	.	.	.	.	.	.	.	.	.	.	.	.	.
4E-\ 4G 4B-	4ryy	(8ee-\L	.	.	.	.	.	.	.	.	.	.	.	.	.	4E-\	przed	.	.	.	4ee-\	przed	.	4g\	przed	.
.	.	8ff\)	.	.	.	.	.	.	.	.	.	.	.	.	.	.	.	.	.	.	.	.	.	.	.	.
8B-/L	4E-\ 4G	8gg'\	.	.	.	.	.	.	.	.	.	.	.	.	.	4E-\	os-	.	.	.	4ee-\	os-	.	4g\	os-	.
8A-/J	.	8ff'\J	.	.	.	.	.	.	.	.	.	.	.	.	.	.	.	.	.	.	.	.	.	.	.	.
=11	=11	=11	=11	=11	=11	=11	=11	=11	=11	=11	=11	=11	=11	=11	=11	=11	=11	=11	=11	=11	=11	=11	=11	=11	=11	=11
2G/	2E-\	8ee-\L	.	1ryy	.	.	1ryy	.	.	1ryy	.	.	1ryy	.	.	(4E-\	-tat-	.	1ryy	.	(4ee-\	-tat-	.	(4g/	-tat-	.
.	.	(16ff\L	.	.	.	.	.	.	.	.	.	.	.	.	.	.	.	.	.	.	.	.	.	.	.	.
.	.	16ee-\JJ	.	.	.	.	.	.	.	.	.	.	.	.	.	.	.	.	.	.	.	.	.	.	.	.
.	.	8dd\L	.	.	.	.	.	.	.	.	.	.	.	.	.	8F\)	.	.	.	.	8dd\)	.	.	8b-/)	.	.
.	.	8cc\J)	.	.	.	.	.	.	.	.	.	.	.	.	.	8F\	-nią	.	.	.	8cc\	-nią	.	8an/	-nią	.
4FF/ 4F	4ryy	(8b-\L	<	.	.	.	.	.	.	.	.	.	.	.	.	([4F\	zgu-	.	.	.	2cc\	zgu-	.	(4a/	zgu-	.
.	.	8an\)	.	.	.	.	.	.	.	.	.	.	.	.	.	.	.	.	.	.	.	.	.	.	.	.
4F\ 4An 4c	4ryy	(8gg\	[[	.	.	.	.	.	.	.	.	.	.	.	.	8F\L]	.	.	.	.	.	.	.	8f/L	.	.
.	.	8ff\J)	.	.	.	.	.	.	.	.	.	.	.	.	.	8An\J)	.	.	.	.	.	.	.	8e-/J)	.	.
*v	*v	*	*	*	*	*	*	*	*	*	*	*	*	*	*	*	*	*	*	*	*	*	*	*	*	*
=12	=12	=12	=12	=12	=12	=12	=12	=12	=12	=12	=12	=12	=12	=12	=12	=12	=12	=12	=12	=12	=12	=12	=12	=12	=12
[2B-\ [2d	(8b-\L	.	1ryy	.	.	1ryy	.	.	1ryy	.	.	1ryy	.	.	2B-\	-bą!	.	1ryy	.	2b-\	-bą!	.	2d/	-bą!	.
.	8ff\	.	.	.	.	.	.	.	.	.	.	.	.	.	.	.	.	.	.	.	.	.	.	.	.
.	8bb-\	.	.	.	.	.	.	.	.	.	.	.	.	.	.	.	.	.	.	.	.	.	.	.	.
.	8ff\J)	.	.	.	.	.	.	.	.	.	.	.	.	.	.	.	.	.	.	.	.	.	.	.	.
4B-\] 4d]	(8ee-\L	.	.	.	.	.	.	.	.	.	.	.	.	.	4r	.	.	.	.	4r	.	.	4r	.	.
.	8dd\)	.	.	.	.	.	.	.	.	.	.	.	.	.	.	.	.	.	.	.	.	.	.	.	.
4r	8cc'\	.	.	.	.	.	.	.	.	.	.	.	.	.	4B-\	ach!	.	.	.	4d/	ach!	.	4b-\	ach!	.
.	8b-'\J	.	.	.	.	.	.	.	.	.	.	.	.	.	.	.	.	.	.	.	.	.	.	.	.
=13	=13	=13	=13	=13	=13	=13	=13	=13	=13	=13	=13	=13	=13	=13	=13	=13	=13	=13	=13	=13	=13	=13	=13	=13	=13
!!linebreak:original
*xywh-205:111,1791,1966,440	*	*	*	*	*	*	*	*	*	*	*	*	*	*	*	*	*	*	*	*	*	*	*	*	*
*	*xywh-205:111,1791,1966,440	*	*	*	*	*	*	*	*	*	*	*	*	*	*	*	*	*	*	*	*	*	*	*	*
*	*	*	*	*	*	*	*	*	*	*	*	*	*	*	*xywh-205:138,1593,1951,245	*	*	*	*	*	*	*	*	*	*
*	*	*	*	*	*	*	*	*	*	*	*	*	*	*	*	*	*	*	*	*xywh-205:147,1422,1948,224	*	*	*	*	*
*	*	*	*	*	*	*	*	*	*	*	*	*	*	*	*	*	*	*	*	*	*	*	*xywh-205:159,1215,1999,260	*	*
2AA-\ 2A-	8cc/L	f	1ryy	.	.	1ryy	.	.	1ryy	.	.	1ryy	.	.	4A-X\	na	.	1ryy	.	4e-/	na	.	4cc\	na	.
.	8c/	.	.	.	.	.	.	.	.	.	.	.	.	.	.	.	.	.	.	.	.	.	.	.	.
.	8e-/	.	.	.	.	.	.	.	.	.	.	.	.	.	4A-\	łzy	.	.	.	4e-/	łzy	.	4cc\	łzy	.
.	8a-/J	.	.	.	.	.	.	.	.	.	.	.	.	.	.	.	.	.	.	.	.	.	.	.	.
4AA-\ 4A-	8cc/L	.	.	.	.	.	.	.	.	.	.	.	.	.	4A-\	na-	.	.	.	4e-/	na-	.	4cc\	na-	.
.	8e-/	.	.	.	.	.	.	.	.	.	.	.	.	.	.	.	.	.	.	.	.	.	.	.	.
4AA-\ 4A-	8a-/ 8cc	.	.	.	.	.	.	.	.	.	.	.	.	.	4A-\	-sze	.	.	.	4e-/	-sze	.	4cc\	-sze	.
.	8e-/J	.	.	.	.	.	.	.	.	.	.	.	.	.	.	.	.	.	.	.	.	.	.	.	.
=14	=14	=14	=14	=14	=14	=14	=14	=14	=14	=14	=14	=14	=14	=14	=14	=14	=14	=14	=14	=14	=14	=14	=14	=14	=14
4GG\ 4G	8cc/L	f	1ryy	.	.	1ryy	.	.	1ryy	.	.	1ryy	.	.	(8G\L	li-	.	1ryy	.	(8en/L	li-	.	4cc\	li-	.
!	!	!	!	!	!	!	!	!	!	!	!	!	!	!	!LO:TX:a:i:t=rall.	!	!	!	!	!LO:TX:a:i:t=rall.	!	!	!LO:TX:a:i:t=rall.	!	!
.	8en/	.	.	.	.	.	.	.	.	.	.	.	.	.	8B-\J)	.	.	.	.	8g/J)	.	.	.	.	.
!	!LO:TX:b:i:t=rall.	!	!	!	!	!	!	!	!	!	!	!	!	!	!	!	!	!	!	!	!	!	!	!	!
4GG\ 4G	8cc/	.	.	.	.	.	.	.	.	.	.	.	.	.	(8A-\L	-tość	.	.	.	(8a-/L	-tość	.	4cc\	-tość	.
.	8b-/J	.	.	.	.	.	.	.	.	.	.	.	.	.	8G\J)	.	.	.	.	8b-/J)	.	.	.	.	.
8FF\L 8F	8a-\L 8aa-	>	.	.	.	.	.	.	.	.	.	.	.	.	(8F\L	li-	.	.	.	(8cc\L	li-	.	(8aa-\L	li-	.
8G\	8b-\ 8gg	.	.	.	.	.	.	.	.	.	.	.	.	.	8G\	.	.	.	.	8b-\	.	.	8gg\	.	.
8A-\	8a-\ 8ff	.	.	.	.	.	.	.	.	.	.	.	.	.	8A-\J)	.	.	.	.	8a-\J)	.	.	8ff\J)	.	.
8An\J	8g\J 8ee-	]	.	.	.	.	.	.	.	.	.	.	.	.	8An\	-tość	.	.	.	8g/	-tość	.	8ee-\	-tość	.
=15	=15	=15	=15	=15	=15	=15	=15	=15	=15	=15	=15	=15	=15	=15	=15	=15	=15	=15	=15	=15	=15	=15	=15	=15	=15
(2B-\	[2f/ [>2b- [2dd	.	1ryy	.	.	1ryy	.	.	1ryy	.	.	1ryy	.	.	([2B-\	miéj	.	1ryy	.	[2f/	miéj	.	[2dd\	miéj	.
4BB-/)	4f/] 4b-] 4dd]	.	.	.	.	.	.	.	.	.	.	.	.	.	8B-\L]	.	.	.	.	4f/]	.	.	8dd\L]	.	.
.	.	.	.	.	.	.	.	.	.	.	.	.	.	.	8A-X\J)	.	.	.	.	.	.	.	8b-\J	.	.
4r	4r	.	.	.	.	.	.	.	.	.	.	.	.	.	8G\	daj	.	.	.	4r	.	.	8cc\	daj	.
.	.	.	.	.	.	.	.	.	.	.	.	.	.	.	8F\	z ba-	.	.	.	.	.	.	8dd\	zba-	.
=16	=16	=16	=16	=16	=16	=16	=16	=16	=16	=16	=16	=16	=16	=16	=16	=16	=16	=16	=16	=16	=16	=16	=16	=16	=16
!	!	!	!	!	!	!	!	!	!	!	!	!	!	!	!LO:TX:a:i:t=a tempo.	!	!	!	!	!LO:TX:a:i:t=a tempo.	!	!	!LO:TX:a:i:t=a tempo.	!	!
2E-\ 2G 2B-	(8g\L 8b-	p	1ryy	.	.	1ryy	.	.	1ryy	.	.	1ryy	.	.	4E-\	-wie-	.	1ryy	.	4g/	daj	.	4ee-\	-wie-	.
!LO:TX:a:i:t=a tempo.	!	!	!	!	!	!	!	!	!	!	!	!	!	!	!	!	!	!	!	!	!	!	!	!	!
.	8cc\)	.	.	.	.	.	.	.	.	.	.	.	.	.	.	.	.	.	.	.	.	.	.	.	.
.	8dd'\	.	.	.	.	.	.	.	.	.	.	.	.	.	4E-\	-nie	.	.	.	4g/	zba-	.	4ee-\	-nie	.
.	8ee-'\J	.	.	.	.	.	.	.	.	.	.	.	.	.	.	.	.	.	.	.	.	.	.	.	.
4E-\ 4G 4B-	(8ff\L	.	.	.	.	.	.	.	.	.	.	.	.	.	4E-\	daj	.	.	.	4g/	-wie-	.	4ee-\	daj	.
.	8ee-\)	.	.	.	.	.	.	.	.	.	.	.	.	.	.	.	.	.	.	.	.	.	.	.	.
4E-\ 4G 4B-	8gg'\	.	.	.	.	.	.	.	.	.	.	.	.	.	4E-\	swo-	.	.	.	4g/	-nie	.	4ee-\	swo-	.
.	8ee-'\J	.	.	.	.	.	.	.	.	.	.	.	.	.	.	.	.	.	.	.	.	.	.	.	.
=17	=17	=17	=17	=17	=17	=17	=17	=17	=17	=17	=17	=17	=17	=17	=17	=17	=17	=17	=17	=17	=17	=17	=17	=17	=17
!!linebreak:original
*xywh-205:126,2747,1981,443	*	*	*	*	*	*	*	*	*	*	*	*	*	*	*	*	*	*	*	*	*	*	*	*	*
*	*xywh-205:126,2747,1981,443	*	*	*	*	*	*	*	*	*	*	*	*	*	*	*	*	*	*	*	*	*	*	*	*
*	*	*	*	*	*	*	*	*	*	*	*	*	*	*	*xywh-205:141,2579,1954,227	*	*	*	*	*	*	*	*	*	*
*	*	*	*	*	*	*	*	*	*	*	*	*	*	*	*	*	*	*	*	*xywh-205:156,2405,1957,230	*	*	*	*	*
*	*	*	*	*	*	*	*	*	*	*	*	*	*	*	*	*	*	*	*	*	*	*	*xywh-205:147,2207,1948,263	*	*
2E-\ 2G 2B-	(8b-\L	.	1ryy	.	.	1ryy	.	.	1ryy	.	.	1ryy	.	.	4E-\	-bo-	.	1ryy	.	4g/	z rę-	.	4ee-\	-bo-	.
.	8ee-\)	.	.	.	.	.	.	.	.	.	.	.	.	.	.	.	.	.	.	.	.	.	.	.	.
.	8dd\	.	.	.	.	.	.	.	.	.	.	.	.	.	4B-\	-dę	.	.	.	(8f/L	-ki	.	(8dd\L	-dę	.
.	8ee-\J	.	.	.	.	.	.	.	.	.	.	.	.	.	.	.	.	.	.	8g/J)	.	.	8ee-\J)	.	.
2BB-\ 2F 2A- 2B-	(8dd\L	>	.	.	.	.	.	.	.	.	.	.	.	.	4BB-^>/	z rę-	.	.	.	(4a-^>/	z rę-	.	(4ff\^	z rę-	.
.	8ff\)	.	.	.	.	.	.	.	.	.	.	.	.	.	.	.	.	.	.	.	.	.	.	.	.
.	8bb-\	.	.	.	.	.	.	.	.	.	.	.	.	.	4D/	-ki	.	.	.	8b-/)	.	.	8gg\)	.	.
.	8aa-\J	]]	.	.	.	.	.	.	.	.	.	.	.	.	.	.	.	.	.	8a-/	-ki	.	8ff\	-ki	.
=18	=18	=18	=18	=18	=18	=18	=18	=18	=18	=18	=18	=18	=18	=18	=18	=18	=18	=18	=18	=18	=18	=18	=18	=18	=18
(2E-\ 2G	(8gg\L	p	1ryy	.	.	1ryy	.	.	1ryy	.	.	1ryy	.	.	2E-\	twéj!	.	1ryy	.	2g/	twéj!	.	2ee-\	twéj!	.
.	8ff\	.	.	.	.	.	.	.	.	.	.	.	.	.	.	.	.	.	.	.	.	.	.	.	.
.	8ee-\	.	.	.	.	.	.	.	.	.	.	.	.	.	.	.	.	.	.	.	.	.	.	.	.
.	8dd\J	.	.	.	.	.	.	.	.	.	.	.	.	.	.	.	.	.	.	.	.	.	.	.	.
8E-\L)	4ee-\)	.	.	.	.	.	.	.	.	.	.	.	.	.	4r	.	.	.	.	4r	.	.	4r	.	.
(8G\	.	.	.	.	.	.	.	.	.	.	.	.	.	.	.	.	.	.	.	.	.	.	.	.	.
!	!	!	!	!	!	!	!	!	!	!	!	!	!	!	!	!	!LO:DY:a:rj	!	!	!	!	!LO:DY:a:rj	!	!	!LO:DY:a:rj
8A-\	4r	.	.	.	.	.	.	.	.	.	.	.	.	.	4E-\	O	p	.	.	4g/	O	p	4b-\	O	p
8An\J)	.	.	.	.	.	.	.	.	.	.	.	.	.	.	.	.	.	.	.	.	.	.	.	.	.
=19	=19	=19	=19	=19	=19	=19	=19	=19	=19	=19	=19	=19	=19	=19	=19	=19	=19	=19	=19	=19	=19	=19	=19	=19	=19
!	!	!LO:DY:b:rj	!	!	!	!	!	!	!	!	!	!	!	!	!	!	!	!	!	!	!	!	!	!	!
2E-\ 2G	(8B-/L	pp	1ryy	.	.	1ryy	.	.	1ryy	.	.	1ryy	.	.	4E-\	mat-	.	1ryy	.	4g/	nat-	.	4b-\	mat-	.
.	8c/)	.	.	.	.	.	.	.	.	.	.	.	.	.	.	.	.	.	.	.	.	.	.	.	.
.	8d'/	.	.	.	.	.	.	.	.	.	.	.	.	.	4E-\	-ko	<	.	.	4g/	-ko	<	4ee-\	-ko	<
.	8e-'/J	.	.	.	.	.	.	.	.	.	.	.	.	.	.	.	[	.	.	.	.	[	.	.	[
4E-\ 4G	(8f/L	.	.	.	.	.	.	.	.	.	.	.	.	.	8E-\L	mat-	>	.	.	4.g/	mat-	>	4.ee-\	mat-	>
.	8e-/)	.	.	.	.	.	.	.	.	.	.	.	.	.	8D\J	.	]	.	.	.	.	]	.	.	]
4C\ 4G	8g'/	.	.	.	.	.	.	.	.	.	.	.	.	.	4C/	-ko	.	.	.	.	.	.	.	.	.
.	8e-'/J	.	.	.	.	.	.	.	.	.	.	.	.	.	.	.	.	.	.	8g/	-ko	.	8ee-\	-ko	.
=20	=20	=20	=20	=20	=20	=20	=20	=20	=20	=20	=20	=20	=20	=20	=20	=20	=20	=20	=20	=20	=20	=20	=20	=20	=20
2AA-\ 2A-	(8c/L	>	1ryy	.	.	1ryy	.	.	1ryy	.	.	1ryy	.	.	(2BB-^>/	li-	.	1ryy	.	4f^>/	li-	.	4ee-^\	li-	.
.	8e-/	.	.	.	.	.	.	.	.	.	.	.	.	.	.	.	.	.	.	.	.	.	.	.	.
.	8d/)	.	.	.	.	.	.	.	.	.	.	.	.	.	.	.	.	.	.	8f/	-tość	.	8dd\	-tość	.
.	8c'/J	]	.	.	.	.	.	.	.	.	.	.	.	.	.	.	.	.	.	8a-/	ach	.	8cc\	ach	.
!	!LO:TX:b:t=rall:rj	!	!	!	!	!	!	!	!	!	!	!	!	!	!	!	!	!	!	!	!	!	!	!	!
2BB-\ 2D 2F 2A-	(8d/L	.	.	.	.	.	.	.	.	.	.	.	.	.	4.BB-/)	.	.	.	.	4.a-/	li-	.	4.dd\	li-	.
!	!	!	!	!	!	!	!	!	!	!	!	!	!	!	!LO:TX:a:i:t=rall	!	!	!	!	!LO:TX:a:i:t=rall	!	!	!LO:TX:a:i:t=rall	!	!
.	8B-/	.	.	.	.	.	.	.	.	.	.	.	.	.	.	.	.	.	.	.	.	.	.	.	.
.	8.f/)	.	.	.	.	.	.	.	.	.	.	.	.	.	.	.	.	.	.	.	.	.	.	.	.
.	.	.	.	.	.	.	.	.	.	.	.	.	.	.	8B-\	-tość	.	.	.	8g/	-tość	.	8ee-\	-tość	.
!	!LO:N:vis=8	!	!	!	!	!	!	!	!	!	!	!	!	!	!	!	!	!	!	!	!	!	!	!	!
.	16e-^/Jk	pp	.	.	.	.	.	.	.	.	.	.	.	.	.	.	.	.	.	.	.	.	.	.	.
=21	=21	=21	=21	=21	=21	=21	=21	=21	=21	=21	=21	=21	=21	=21	=21	=21	=21	=21	=21	=21	=21	=21	=21	=21	=21
!!pagebreak:original
*xywh-206:420,772,2014,449	*	*	*	*	*	*	*	*	*	*	*	*	*	*	*	*	*	*	*	*	*	*	*	*	*
*	*xywh-206:420,772,2014,449	*	*	*	*	*	*	*	*	*	*	*	*	*	*	*	*	*	*	*	*	*	*	*	*
*	*	*	*	*	*	*	*	*	*	*	*	*	*	*	*xywh-206:446,654,1978,212	*	*	*	*	*	*	*	*	*	*
*	*	*	*	*	*	*	*	*	*	*	*	*	*	*	*	*	*	*xywh-206:478,507,1965,202	*	*	*	*	*	*	*
*	*	*	*	*	*	*	*	*	*	*	*	*	*	*	*	*	*	*	*	*xywh-206:478,375,1945,177	*	*	*	*	*
*	*	*	*	*	*	*	*	*	*	*	*	*	*	*	*	*	*	*	*	*	*	*	*xywh-206:481,132,1975,267	*	*
2.E-;\ 2.G	2.e-;/	.	1ryy	.	.	1ryy	.	.	1ryy	.	.	1ryy	.	.	2.E-;\	miéj!	.	2.ryy	.	2.g;/	miéj!	.	2.ee-;\	miéj!	.
4r	4r	.	.	.	.	.	.	.	.	.	.	.	.	.	4r	.	.	4r	.	4r	.	.	4r	.	.
=22||	=22||	=22||	=22||	=22||	=22||	=22||	=22||	=22||	=22||	=22||	=22||	=22||	=22||	=22||	=22||	=22||	=22||	=22||	=22||	=22||	=22||	=22||	=22||	=22||	=22||
*	*	*	*xywh-206:446,654,1978,212	*	*	*	*	*	*	*	*	*	*	*	*	*	*	*	*	*	*	*	*	*	*
*	*	*	*	*	*	*xywh-206:478,507,1965,202	*	*	*	*	*	*	*	*	*	*	*	*	*	*	*	*	*	*	*
*	*	*	*	*	*	*	*	*	*xywh-206:478,375,1945,177	*	*	*	*	*	*	*	*	*	*	*	*	*	*	*	*
*	*	*	*	*	*	*	*	*	*	*	*	*xywh-206:481,132,1975,267	*	*	*	*	*	*	*	*	*	*	*	*	*
*M3/4	*M3/4	*	*M3/4	*	*	*M3/4	*	*	*M3/4	*	*	*M3/4	*	*	*M3/4	*	*	*M3/4	*	*M3/4	*	*	*M3/4	*	*
!	!LO:TX:a:t=Come prima:rj:i	!	!	!	!	!	!	!	!	!	!	!LO:TX:a:t=CHÓR MYŚLIWCÓW	!	!	!	!	!	!	!	!	!	!	!	!	!
8E-\L	8e-/L	f	4E-\	Śmierć!	.	4E-/	Śmierć!	.	4e-/	Śmierć!	.	4e-/	Śmierć!	.	2.ryy	.	.	2.ryy	.	2.ryy	.	.	2.ryy	.	.
8D\	8d/	.	.	.	.	.	.	.	.	.	.	.	.	.	.	.	.	.	.	.	.	.	.	.	.
8E-\	8e-/	.	4r	.	.	4r	.	.	4r	.	.	4r	.	.	.	.	.	.	.	.	.	.	.	.	.
8F\	8f/	.	.	.	.	.	.	.	.	.	.	.	.	.	.	.	.	.	.	.	.	.	.	.	.
8G-X\	8g-X/	.	4r	.	.	4r	.	.	4r	.	.	4r	.	.	.	.	.	.	.	.	.	.	.	.	.
8A-\J	8a-/J	.	.	.	.	.	.	.	.	.	.	.	.	.	.	.	.	.	.	.	.	.	.	.	.
=23	=23	=23	=23	=23	=23	=23	=23	=23	=23	=23	=23	=23	=23	=23	=23	=23	=23	=23	=23	=23	=23	=23	=23	=23	=23
4B-\	4b-\	.	2.r	.	.	2.r	.	.	2.r	.	.	2.r	.	.	2.ryy	.	.	2.ryy	.	2.ryy	.	.	2.ryy	.	.
8B-\L	8b-\L	.	.	.	.	.	.	.	.	.	.	.	.	.	.	.	.	.	.	.	.	.	.	.	.
8c-X\J	8cc-X\J	.	.	.	.	.	.	.	.	.	.	.	.	.	.	.	.	.	.	.	.	.	.	.	.
4B-\	4b-\	.	.	.	.	.	.	.	.	.	.	.	.	.	.	.	.	.	.	.	.	.	.	.	.
=24	=24	=24	=24	=24	=24	=24	=24	=24	=24	=24	=24	=24	=24	=24	=24	=24	=24	=24	=24	=24	=24	=24	=24	=24	=24
!	!	!LO:DY:rj	!	!	!	!	!	!	!	!	!	!	!	!	!	!	!	!	!	!	!	!	!	!	!
2e-\	2ee-\	sf	4E-^\	śmierć!	.	4E-^>/	śmierć!	.	4e-^>/	śmierć!	.	4e-^>/	śmierć!	.	2.ryy	.	.	2.ryy	.	2.ryy	.	.	2.ryy	.	.
.	.	.	4r	.	.	4r	.	.	4r	.	.	4r	.	.	.	.	.	.	.	.	.	.	.	.	.
8d-X\L	8dd-X\L	.	4r	.	.	4r	.	.	4r	.	.	4r	.	.	.	.	.	.	.	.	.	.	.	.	.
8c-X\J	8cc-X\J	.	.	.	.	.	.	.	.	.	.	.	.	.	.	.	.	.	.	.	.	.	.	.	.
=25	=25	=25	=25	=25	=25	=25	=25	=25	=25	=25	=25	=25	=25	=25	=25	=25	=25	=25	=25	=25	=25	=25	=25	=25	=25
!!linebreak:original
*xywh-206:446,1778,1990,467	*	*	*	*	*	*	*	*	*	*	*	*	*	*	*	*	*	*	*	*	*	*	*	*	*
*	*xywh-206:446,1778,1990,467	*	*	*	*	*	*	*	*	*	*	*	*	*	*	*	*	*	*	*	*	*	*	*	*
*	*	*	*xywh-206:486,1648,1915,202	*	*	*	*	*	*	*	*	*	*	*	*	*	*	*	*	*	*	*	*	*	*
*	*	*	*	*	*	*xywh-206:483,1501,1920,192	*	*	*	*	*	*	*	*	*	*	*	*	*	*	*	*	*	*	*
*	*	*	*	*	*	*	*	*	*xywh-206:483,1346,1910,202	*	*	*	*	*	*	*	*	*	*	*	*	*	*	*	*
*	*	*	*	*	*	*	*	*	*	*	*	*xywh-206:488,1164,1925,232	*	*	*	*	*	*	*	*	*	*	*	*	*
8B-\L	8b-/L	.	2.r	.	.	2.r	.	.	2.r	.	.	2.r	.	.	2.ryy	.	.	2.ryy	.	2.ryy	.	.	2.ryy	.	.
8A-X\	8a-X/	.	.	.	.	.	.	.	.	.	.	.	.	.	.	.	.	.	.	.	.	.	.	.	.
8G-X\	8g-X/	.	.	.	.	.	.	.	.	.	.	.	.	.	.	.	.	.	.	.	.	.	.	.	.
8F\	8f/	.	.	.	.	.	.	.	.	.	.	.	.	.	.	.	.	.	.	.	.	.	.	.	.
8E-\	8e-/	.	.	.	.	.	.	.	.	.	.	.	.	.	.	.	.	.	.	.	.	.	.	.	.
8D\J	8d/J	.	.	.	.	.	.	.	.	.	.	.	.	.	.	.	.	.	.	.	.	.	.	.	.
=26	=26	=26	=26	=26	=26	=26	=26	=26	=26	=26	=26	=26	=26	=26	=26	=26	=26	=26	=26	=26	=26	=26	=26	=26	=26
8E-\L	8e-/L	.	4E-^\	śmierć	.	4E-^>/	śmierć	.	4ee-^\	śmierć	.	4ee-^\	śmierć	.	2.ryy	.	.	2.ryy	.	2.ryy	.	.	2.ryy	.	.
8F\J	8f/J	.	.	.	.	.	.	.	.	.	.	.	.	.	.	.	.	.	.	.	.	.	.	.	.
4G-X\	4g-X/	.	4r	.	.	4r	.	.	4r	.	.	4r	.	.	.	.	.	.	.	.	.	.	.	.	.
8C-X\L	8c-X/L	.	4r	.	.	4r	.	.	4r	.	.	4r	.	.	.	.	.	.	.	.	.	.	.	.	.
8D-X\J	8d-X/J	.	.	.	.	.	.	.	.	.	.	.	.	.	.	.	.	.	.	.	.	.	.	.	.
=27	=27	=27	=27	=27	=27	=27	=27	=27	=27	=27	=27	=27	=27	=27	=27	=27	=27	=27	=27	=27	=27	=27	=27	=27	=27
4E-\	4e-/	.	2.r	.	.	2.r	.	.	2.r	.	.	2.r	.	.	2.ryy	.	.	2.ryy	.	2.ryy	.	.	2.ryy	.	.
8AA-/L	8A-/L	.	.	.	.	.	.	.	.	.	.	.	.	.	.	.	.	.	.	.	.	.	.	.	.
8BB-/J	8B-/J	.	.	.	.	.	.	.	.	.	.	.	.	.	.	.	.	.	.	.	.	.	.	.	.
4C-X/	4c-X/	.	.	.	.	.	.	.	.	.	.	.	.	.	.	.	.	.	.	.	.	.	.	.	.
=28	=28	=28	=28	=28	=28	=28	=28	=28	=28	=28	=28	=28	=28	=28	=28	=28	=28	=28	=28	=28	=28	=28	=28	=28	=28
8AAA-\L 8AA-	8F</L 8c-X\ 8f\	.	4AA-/	śmierć	.	4A-\	śmierć	.	4a-\	śmierć	.	4ff\	śmierć	.	2.ryy	.	.	2.ryy	.	2.ryy	.	.	2.ryy	.	.
8AAA-\J 8AA-	8F</J 8c- 8f	.	.	.	.	.	.	.	.	.	.	.	.	.	.	.	.	.	.	.	.	.	.	.	.
4AAA-\ 4AA-	4F</ 4c- 4f	.	4AA-/	wro-	.	4A-\	wro-	.	4a-\	wro-	.	4ff\	wro-	.	.	.	.	.	.	.	.	.	.	.	.
4AAA-\ 4AA-	4F</ 4c- 4f	.	4AA-/	-gom	.	4A-\	-gom	.	4cc-X\	-gom	.	4ee-\	-gom	.	.	.	.	.	.	.	.	.	.	.	.
=29	=29	=29	=29	=29	=29	=29	=29	=29	=29	=29	=29	=29	=29	=29	=29	=29	=29	=29	=29	=29	=29	=29	=29	=29	=29
!!linebreak:original
*xywh-206:461,2792,1955,407	*	*	*	*	*	*	*	*	*	*	*	*	*	*	*	*	*	*	*	*	*	*	*	*	*
*	*xywh-206:461,2792,1955,407	*	*	*	*	*	*	*	*	*	*	*	*	*	*	*	*	*	*	*	*	*	*	*	*
*	*	*	*xywh-206:451,2582,1990,254	*	*	*	*	*	*	*	*	*	*	*	*	*	*	*	*	*	*	*	*	*	*
*	*	*	*	*	*	*xywh-206:481,2453,1958,219	*	*	*	*	*	*	*	*	*	*	*	*	*	*	*	*	*	*	*
*	*	*	*	*	*	*	*	*	*xywh-206:499,2305,1905,209	*	*	*	*	*	*	*	*	*	*	*	*	*	*	*	*
*	*	*	*	*	*	*	*	*	*	*	*	*xywh-206:486,2150,1940,202	*	*	*	*	*	*	*	*	*	*	*	*	*
2BBB-\ 2BB-	2F</ 2B- 2d	.	4BB-\	śmierć!	.	4A-\	śmierć!	.	4b-\	śmierć!	.	4dd\	śmierć!	.	2.ryy	.	.	2.ryy	.	2.ryy	.	.	2.ryy	.	.
.	.	.	4r	.	.	4r	.	.	4r	.	.	4r	.	.	.	.	.	.	.	.	.	.	.	.	.
4r	4r	.	8r	.	.	4r	.	.	4r	.	.	4r	.	.	.	.	.	.	.	.	.	.	.	.	.
!	!	!	!LO:TX:a:t=Récit solo.:i	!	!	!	!	!	!	!	!	!	!	!	!	!	!	!	!	!	!	!	!	!	!
.	.	.	8F\	Sły-	.	.	.	.	.	.	.	.	.	.	.	.	.	.	.	.	.	.	.	.	.
=30	=30	=30	=30	=30	=30	=30	=30	=30	=30	=30	=30	=30	=30	=30	=30	=30	=30	=30	=30	=30	=30	=30	=30	=30	=30
2.r	2.r	.	2B-\	-szy-	.	2.r	.	.	2.r	.	.	2.r	.	.	2.ryy	.	.	2.ryy	.	2.ryy	.	.	2.ryy	.	.
.	.	.	4B-\	-cie	.	.	.	.	.	.	.	.	.	.	.	.	.	.	.	.	.	.	.	.	.
=31	=31	=31	=31	=31	=31	=31	=31	=31	=31	=31	=31	=31	=31	=31	=31	=31	=31	=31	=31	=31	=31	=31	=31	=31	=31
4r	4r	.	8B-\	sło-	.	2.r	.	.	2.r	.	.	2.r	.	.	2.ryy	.	.	2.ryy	.	2.ryy	.	.	2.ryy	.	.
.	.	.	16B-\	-wi-	.	.	.	.	.	.	.	.	.	.	.	.	.	.	.	.	.	.	.	.	.
.	.	.	16B-\	-ka	.	.	.	.	.	.	.	.	.	.	.	.	.	.	.	.	.	.	.	.	.
4BB-\ 4B-	4d/ 4f 4b-	.	4c-X\	śpiew	.	.	.	.	.	.	.	.	.	.	.	.	.	.	.	.	.	.	.	.	.
4r	4r	.	(8A-\	brzmią-	.	.	.	.	.	.	.	.	.	.	.	.	.	.	.	.	.	.	.	.	.
.	.	.	16F\)	.	.	.	.	.	.	.	.	.	.	.	.	.	.	.	.	.	.	.	.	.	.
.	.	.	16E-\	-cy	.	.	.	.	.	.	.	.	.	.	.	.	.	.	.	.	.	.	.	.	.
=32	=32	=32	=32	=32	=32	=32	=32	=32	=32	=32	=32	=32	=32	=32	=32	=32	=32	=32	=32	=32	=32	=32	=32	=32	=32
4r	4r	.	8.D\	rzew-	.	2.r	.	.	2.r	.	.	2.r	.	.	2.ryy	.	.	2.ryy	.	2.ryy	.	.	2.ryy	.	.
.	.	.	16F\	-nie	.	.	.	.	.	.	.	.	.	.	.	.	.	.	.	.	.	.	.	.	.
4BB-\ 4B-	4d/ 4f 4b- 4dd	.	4.B-\	po-	.	.	.	.	.	.	.	.	.	.	.	.	.	.	.	.	.	.	.	.	.
4r	4r	.	.	.	.	.	.	.	.	.	.	.	.	.	.	.	.	.	.	.	.	.	.	.	.
.	.	.	8B-\	-śród	.	.	.	.	.	.	.	.	.	.	.	.	.	.	.	.	.	.	.	.	.
=33	=33	=33	=33	=33	=33	=33	=33	=33	=33	=33	=33	=33	=33	=33	=33	=33	=33	=33	=33	=33	=33	=33	=33	=33	=33
!!pagebreak:original
*xywh-207:138,848,1990,395	*	*	*	*	*	*	*	*	*	*	*	*	*	*	*	*	*	*	*	*	*	*	*	*	*
*	*xywh-207:138,848,1990,395	*	*	*	*	*	*	*	*	*	*	*	*	*	*	*	*	*	*	*	*	*	*	*	*
*	*	*	*xywh-207:129,692,2035,200	*	*	*	*	*	*	*	*	*	*	*	*	*	*	*	*	*	*	*	*	*	*
*	*	*	*	*	*	*xywh-207:144,524,1933,203	*	*	*	*	*	*	*	*	*	*	*	*	*	*	*	*	*	*	*
*	*	*	*	*	*	*	*	*	*xywh-207:156,359,1894,206	*	*	*	*	*	*	*	*	*	*	*	*	*	*	*	*
*	*	*	*	*	*	*	*	*	*	*	*	*xywh-207:135,119,1990,284	*	*	*	*	*	*	*	*	*	*	*	*	*
!	!	!LO:DY:b:rj	!	!	!	!	!	!	!	!	!	!	!	!	!	!	!	!	!	!	!	!	!	!	!
8BB-\L	8A-/L	f	2B-\	skał?	.	2.r	.	.	2.r	.	.	2.r	.	.	2.ryy	.	.	2.ryy	.	2.ryy	.	.	2.ryy	.	.
8AAn\	8An/	.	.	.	.	.	.	.	.	.	.	.	.	.	.	.	.	.	.	.	.	.	.	.	.
8BB-\	8B-/	.	.	.	.	.	.	.	.	.	.	.	.	.	.	.	.	.	.	.	.	.	.	.	.
8C\	8c/	.	.	.	.	.	.	.	.	.	.	.	.	.	.	.	.	.	.	.	.	.	.	.	.
8D\	8d/	.	4r	.	.	.	.	.	.	.	.	.	.	.	.	.	.	.	.	.	.	.	.	.	.
8E-\J	8e-/J	.	.	.	.	.	.	.	.	.	.	.	.	.	.	.	.	.	.	.	.	.	.	.	.
=34	=34	=34	=34	=34	=34	=34	=34	=34	=34	=34	=34	=34	=34	=34	=34	=34	=34	=34	=34	=34	=34	=34	=34	=34	=34
4F\	4f/	.	2.r	.	.	2.r	.	.	2.r	.	.	2.r	.	.	2.ryy	.	.	2.ryy	.	2.ryy	.	.	2.ryy	.	.
8F\L	8f/L	.	.	.	.	.	.	.	.	.	.	.	.	.	.	.	.	.	.	.	.	.	.	.	.
8G-X\J	8g-X/J	.	.	.	.	.	.	.	.	.	.	.	.	.	.	.	.	.	.	.	.	.	.	.	.
4A-\	4a-/	.	.	.	.	.	.	.	.	.	.	.	.	.	.	.	.	.	.	.	.	.	.	.	.
=35	=35	=35	=35	=35	=35	=35	=35	=35	=35	=35	=35	=35	=35	=35	=35	=35	=35	=35	=35	=35	=35	=35	=35	=35	=35
!	!	!	!	!	!LO:DY:a:rj	!	!	!LO:DY:a:rj	!	!	!LO:DY:a:rj	!	!	!LO:DY:a:rj	!	!	!	!	!	!	!	!	!	!	!
8A-\L	8a-\L	.	4BB-/	Śmierć	f	4B-\	Śmierć	f	4b-\	Śmierć	f	4b-\	Śmierć	f	2.ryy	.	.	2.ryy	.	2.ryy	.	.	2.ryy	.	.
8B-\J	8b-\J	.	.	.	.	.	.	.	.	.	.	.	.	.	.	.	.	.	.	.	.	.	.	.	.
4c-X^\	4cc-X\	.	2r	.	.	4r	.	.	4r	.	.	4r	.	.	.	.	.	.	.	.	.	.	.	.	.
8c-\L	8cc-\L	.	.	.	.	4r	.	.	4r	.	.	4r	.	.	.	.	.	.	.	.	.	.	.	.	.
8B-\J	8b-\J	.	.	.	.	.	.	.	.	.	.	.	.	.	.	.	.	.	.	.	.	.	.	.	.
=36	=36	=36	=36	=36	=36	=36	=36	=36	=36	=36	=36	=36	=36	=36	=36	=36	=36	=36	=36	=36	=36	=36	=36	=36	=36
8A-\L	8a-/L	.	2.r	.	.	2.r	.	.	2.r	.	.	2.r	.	.	2.ryy	.	.	2.ryy	.	2.ryy	.	.	2.ryy	.	.
8G-X\	8g-X/	.	.	.	.	.	.	.	.	.	.	.	.	.	.	.	.	.	.	.	.	.	.	.	.
8F\	8f/	.	.	.	.	.	.	.	.	.	.	.	.	.	.	.	.	.	.	.	.	.	.	.	.
8E-\	8e-/	.	.	.	.	.	.	.	.	.	.	.	.	.	.	.	.	.	.	.	.	.	.	.	.
8D\	8d/	.	.	.	.	.	.	.	.	.	.	.	.	.	.	.	.	.	.	.	.	.	.	.	.
8E-\J	8e-/J	.	.	.	.	.	.	.	.	.	.	.	.	.	.	.	.	.	.	.	.	.	.	.	.
=37	=37	=37	=37	=37	=37	=37	=37	=37	=37	=37	=37	=37	=37	=37	=37	=37	=37	=37	=37	=37	=37	=37	=37	=37	=37
!!linebreak:original
*xywh-207:123,1825,2026,416	*	*	*	*	*	*	*	*	*	*	*	*	*	*	*	*	*	*	*	*	*	*	*	*	*
*	*xywh-207:123,1825,2026,416	*	*	*	*	*	*	*	*	*	*	*	*	*	*	*	*	*	*	*	*	*	*	*	*
*	*	*	*xywh-207:156,1678,1960,191	*	*	*	*	*	*	*	*	*	*	*	*	*	*	*	*	*	*	*	*	*	*
*	*	*	*	*	*	*xywh-207:174,1510,1936,203	*	*	*	*	*	*	*	*	*	*	*	*	*	*	*	*	*	*	*
*	*	*	*	*	*	*	*	*	*xywh-207:159,1375,1978,194	*	*	*	*	*	*	*	*	*	*	*	*	*	*	*	*
*	*	*	*	*	*	*	*	*	*	*	*	*xywh-207:150,1171,1990,251	*	*	*	*	*	*	*	*	*	*	*	*	*
*	*	*	*	*	*	*	*	*	*	*	*	*	*	*	*	*	*	*xywh-207:150,1171,1990,251	*	*	*	*	*	*	*
2F\	2f/	.	2.r	.	.	2.r	.	.	2.r	.	.	2.r	.	.	2.ryy	.	.	2.ryy	.	2.ryy	.	.	2.ryy	.	.
8F\L	8f/L	.	.	.	.	.	.	.	.	.	.	.	.	.	.	.	.	.	.	.	.	.	.	.	.
8G-X\J	8g-X/J	.	.	.	.	.	.	.	.	.	.	.	.	.	.	.	.	.	.	.	.	.	.	.	.
=38	=38	=38	=38	=38	=38	=38	=38	=38	=38	=38	=38	=38	=38	=38	=38	=38	=38	=38	=38	=38	=38	=38	=38	=38	=38
8A-\L	8a-/L	.	2.BB-/	jeń-	.	2.B-\	jeń-	.	2.dd\	jeń-	.	2.ff\	jeń-	.	2.ryy	.	.	2.ryy	.	2.ryy	.	.	2.ryy	.	.
8G-X\	8g-X/	.	.	.	.	.	.	.	.	.	.	.	.	.	.	.	.	.	.	.	.	.	.	.	.
8F\	8f/	.	.	.	.	.	.	.	.	.	.	.	.	.	.	.	.	.	.	.	.	.	.	.	.
8E-\	8e-/	.	.	.	.	.	.	.	.	.	.	.	.	.	.	.	.	.	.	.	.	.	.	.	.
8D\	8d/	.	.	.	.	.	.	.	.	.	.	.	.	.	.	.	.	.	.	.	.	.	.	.	.
8C-X\J	8c-X/J	.	.	.	.	.	.	.	.	.	.	.	.	.	.	.	.	.	.	.	.	.	.	.	.
=39	=39	=39	=39	=39	=39	=39	=39	=39	=39	=39	=39	=39	=39	=39	=39	=39	=39	=39	=39	=39	=39	=39	=39	=39	=39
16BBB-/LL	16B-/LL	p	4B-\	-com!	.	4B-/	-com!	.	4dd\	-com!	.	4ff\	-com!	.	2.ryy	.	.	4r	.	2.ryy	.	.	2.ryy	.	.
16BB-/	16An/	.	.	.	.	.	.	.	.	.	.	.	.	.	.	.	.	.	.	.	.	.	.	.	.
16BBB-/	16B-/	.	.	.	.	.	.	.	.	.	.	.	.	.	.	.	.	.	.	.	.	.	.	.	.
16BB-/JJ	16A/JJ	.	.	.	.	.	.	.	.	.	.	.	.	.	.	.	.	.	.	.	.	.	.	.	.
16BBB-/LL	16B-/LL	.	4r	.	.	4r	.	.	4r	.	.	4r	.	.	.	.	.	4r	.	.	.	.	.	.	.
16BB-/	16A/	.	.	.	.	.	.	.	.	.	.	.	.	.	.	.	.	.	.	.	.	.	.	.	.
16BBB-/	16B-/	.	.	.	.	.	.	.	.	.	.	.	.	.	.	.	.	.	.	.	.	.	.	.	.
16BB-/JJ	16A/JJ	.	.	.	.	.	.	.	.	.	.	.	.	.	.	.	.	.	.	.	.	.	.	.	.
!	!	!	!	!	!	!	!	!	!	!	!	!	!	!	!	!	!	!LO:TX:a:t=BORUS. récit.:i	!	!	!	!	!	!	!
16BBB-/LL	16B-/LL	.	4r	.	.	4r	.	.	4r	.	.	4ryy	.	.	.	.	.	8.d\	Nig-	.	.	.	.	.	.
16BB-/	16A/	.	.	.	.	.	.	.	.	.	.	.	.	.	.	.	.	.	.	.	.	.	.	.	.
16BBB-/	16B-/	.	.	.	.	.	.	.	.	.	.	.	.	.	.	.	.	.	.	.	.	.	.	.	.
16BB-/JJ	16A/JJ	.	.	.	.	.	.	.	.	.	.	.	.	.	.	.	.	16d\	-dy	.	.	.	.	.	.
=40	=40	=40	=40	=40	=40	=40	=40	=40	=40	=40	=40	=40	=40	=40	=40	=40	=40	=40	=40	=40	=40	=40	=40	=40	=40
16BBB-/LL	16B-/LL	.	2.r	.	.	2.r	.	.	2.r	.	.	2.ryy	.	.	2.ryy	.	.	2f\	z pod	2.ryy	.	.	2.ryy	.	.
16BB-/	16c/	.	.	.	.	.	.	.	.	.	.	.	.	.	.	.	.	.	.	.	.	.	.	.	.
!	!	!	!	!	!	!	!	!	!	!	!	!	!	!	!	!	!	!LO:TX:a:t=marcato.:i	!	!	!	!	!	!	!
16BBB-/	16B-/	.	.	.	.	.	.	.	.	.	.	.	.	.	.	.	.	.	.	.	.	.	.	.	.
16BB-/JJ	16c/JJ	.	.	.	.	.	.	.	.	.	.	.	.	.	.	.	.	.	.	.	.	.	.	.	.
16BBB-/LL	16B-/LL	.	.	.	.	.	.	.	.	.	.	.	.	.	.	.	.	.	.	.	.	.	.	.	.
16BB-/	16c/	.	.	.	.	.	.	.	.	.	.	.	.	.	.	.	.	.	.	.	.	.	.	.	.
16BBB-/	16B-/	.	.	.	.	.	.	.	.	.	.	.	.	.	.	.	.	.	.	.	.	.	.	.	.
16BB-/JJ	16c/JJ	.	.	.	.	.	.	.	.	.	.	.	.	.	.	.	.	.	.	.	.	.	.	.	.
16BBB-/LL	16B-/LL	.	.	.	.	.	.	.	.	.	.	.	.	.	.	.	.	4f\	ma-	.	.	.	.	.	.
16BB-/	16c/	.	.	.	.	.	.	.	.	.	.	.	.	.	.	.	.	.	.	.	.	.	.	.	.
16BBB-/	16B-/	.	.	.	.	.	.	.	.	.	.	.	.	.	.	.	.	.	.	.	.	.	.	.	.
16BB-/JJ	16c/JJ	.	.	.	.	.	.	.	.	.	.	.	.	.	.	.	.	.	.	.	.	.	.	.	.
=41	=41	=41	=41	=41	=41	=41	=41	=41	=41	=41	=41	=41	=41	=41	=41	=41	=41	=41	=41	=41	=41	=41	=41	=41	=41
!!linebreak:original
*xywh-207:144,2751,2071,464	*	*	*	*	*	*	*	*	*	*	*	*	*	*	*	*	*	*	*	*	*	*	*	*	*
*	*xywh-207:144,2751,2071,464	*	*	*	*	*	*	*	*	*	*	*	*	*	*	*	*	*	*	*	*	*	*	*	*
*	*	*	*	*	*	*	*	*	*	*	*	*	*	*	*	*	*	*xywh-207:186,2214,1897,218	*	*	*	*	*	*	*
16BBB-/LL	16d/LL	.	2.r	.	.	2.r	.	.	2.r	.	.	2.r	.	.	2.ryy	.	.	2f\	-jo-	2.ryy	.	.	2.ryy	.	.
16BB-/	16c/	.	.	.	.	.	.	.	.	.	.	.	.	.	.	.	.	.	.	.	.	.	.	.	.
16BBB-/	16d/	.	.	.	.	.	.	.	.	.	.	.	.	.	.	.	.	.	.	.	.	.	.	.	.
16BB-/JJ	16c/JJ	.	.	.	.	.	.	.	.	.	.	.	.	.	.	.	.	.	.	.	.	.	.	.	.
16BBB-/LL	16d/LL	.	.	.	.	.	.	.	.	.	.	.	.	.	.	.	.	.	.	.	.	.	.	.	.
16BB-/	16c/	.	.	.	.	.	.	.	.	.	.	.	.	.	.	.	.	.	.	.	.	.	.	.	.
16BBB-/	16d/	.	.	.	.	.	.	.	.	.	.	.	.	.	.	.	.	.	.	.	.	.	.	.	.
16BB-/JJ	16c/JJ	.	.	.	.	.	.	.	.	.	.	.	.	.	.	.	.	.	.	.	.	.	.	.	.
16BBB-/LL	16d/LL	.	.	.	.	.	.	.	.	.	.	.	.	.	.	.	.	4f\	-wych	.	.	.	.	.	.
16BB-/	16c/	.	.	.	.	.	.	.	.	.	.	.	.	.	.	.	.	.	.	.	.	.	.	.	.
16BBB-/	16d/	.	.	.	.	.	.	.	.	.	.	.	.	.	.	.	.	.	.	.	.	.	.	.	.
16BB-/JJ	16c/JJ	.	.	.	.	.	.	.	.	.	.	.	.	.	.	.	.	.	.	.	.	.	.	.	.
=42	=42	=42	=42	=42	=42	=42	=42	=42	=42	=42	=42	=42	=42	=42	=42	=42	=42	=42	=42	=42	=42	=42	=42	=42	=42
16BBB-/LL	16d/LL	.	2.r	.	.	2.r	.	.	2.r	.	.	2.r	.	.	2.ryy	.	.	2f\	drzew	2.ryy	.	.	2.ryy	.	.
16BB-/	16e-/	.	.	.	.	.	.	.	.	.	.	.	.	.	.	.	.	.	.	.	.	.	.	.	.
16BBB-/	16d/	.	.	.	.	.	.	.	.	.	.	.	.	.	.	.	.	.	.	.	.	.	.	.	.
16BB-/JJ	16e-/JJ	.	.	.	.	.	.	.	.	.	.	.	.	.	.	.	.	.	.	.	.	.	.	.	.
16BBB-/LL	16d/LL	.	.	.	.	.	.	.	.	.	.	.	.	.	.	.	.	.	.	.	.	.	.	.	.
16BB-/	16e-/	.	.	.	.	.	.	.	.	.	.	.	.	.	.	.	.	.	.	.	.	.	.	.	.
16BBB-/	16d/	.	.	.	.	.	.	.	.	.	.	.	.	.	.	.	.	.	.	.	.	.	.	.	.
16BB-/JJ	16e-/JJ	.	.	.	.	.	.	.	.	.	.	.	.	.	.	.	.	.	.	.	.	.	.	.	.
16BBB-/LL	16d/LL	.	.	.	.	.	.	.	.	.	.	.	.	.	.	.	.	8f\	tak	.	.	.	.	.	.
16BB-/	16e-/	.	.	.	.	.	.	.	.	.	.	.	.	.	.	.	.	.	.	.	.	.	.	.	.
16BBB-/	16d/	.	.	.	.	.	.	.	.	.	.	.	.	.	.	.	.	8f\	u-	.	.	.	.	.	.
16BB-/JJ	16e-/JJ	.	.	.	.	.	.	.	.	.	.	.	.	.	.	.	.	.	.	.	.	.	.	.	.
=43	=43	=43	=43	=43	=43	=43	=43	=43	=43	=43	=43	=43	=43	=43	=43	=43	=43	=43	=43	=43	=43	=43	=43	=43	=43
16BBB-/LL	16f/LL	.	2.r	.	.	2.r	.	.	2.r	.	.	2.r	.	.	2.ryy	.	.	2d\	-ro-	2.ryy	.	.	2.ryy	.	.
16BB-/	16en/	.	.	.	.	.	.	.	.	.	.	.	.	.	.	.	.	.	.	.	.	.	.	.	.
16BBB-/	16f/	.	.	.	.	.	.	.	.	.	.	.	.	.	.	.	.	.	.	.	.	.	.	.	.
16BB-/JJ	16e/JJ	.	.	.	.	.	.	.	.	.	.	.	.	.	.	.	.	.	.	.	.	.	.	.	.
16BBB-/LL	16f/LL	.	.	.	.	.	.	.	.	.	.	.	.	.	.	.	.	.	.	.	.	.	.	.	.
16BB-/	16e/	.	.	.	.	.	.	.	.	.	.	.	.	.	.	.	.	.	.	.	.	.	.	.	.
16BBB-/	16f/	.	.	.	.	.	.	.	.	.	.	.	.	.	.	.	.	.	.	.	.	.	.	.	.
16BB-/JJ	16e/JJ	.	.	.	.	.	.	.	.	.	.	.	.	.	.	.	.	.	.	.	.	.	.	.	.
16BBB-/LL	16f/LL	.	.	.	.	.	.	.	.	.	.	.	.	.	.	.	.	8d\	-czy	.	.	.	.	.	.
16BB-/	16e/	.	.	.	.	.	.	.	.	.	.	.	.	.	.	.	.	.	.	.	.	.	.	.	.
16BBB-/	16f/	.	.	.	.	.	.	.	.	.	.	.	.	.	.	.	.	8d\	u-	.	.	.	.	.	.
16BB-/JJ	16e/JJ	.	.	.	.	.	.	.	.	.	.	.	.	.	.	.	.	.	.	.	.	.	.	.	.
=44	=44	=44	=44	=44	=44	=44	=44	=44	=44	=44	=44	=44	=44	=44	=44	=44	=44	=44	=44	=44	=44	=44	=44	=44	=44
16BBB-/LL	16f/LL	.	2.r	.	.	2.r	.	.	2.r	.	.	2.r	.	.	2.ryy	.	.	4d\	-ro-	2.ryy	.	.	2.ryy	.	.
16BB-/	16g/	.	.	.	.	.	.	.	.	.	.	.	.	.	.	.	.	.	.	.	.	.	.	.	.
16BBB-/	16f/	.	.	.	.	.	.	.	.	.	.	.	.	.	.	.	.	.	.	.	.	.	.	.	.
16BB-/JJ	16g/JJ	.	.	.	.	.	.	.	.	.	.	.	.	.	.	.	.	.	.	.	.	.	.	.	.
16BBB-/LL	16f/LL	.	.	.	.	.	.	.	.	.	.	.	.	.	.	.	.	4d\	-czy	.	.	.	.	.	.
16BB-/	16g/	.	.	.	.	.	.	.	.	.	.	.	.	.	.	.	.	.	.	.	.	.	.	.	.
16BBB-/	16f/	.	.	.	.	.	.	.	.	.	.	.	.	.	.	.	.	.	.	.	.	.	.	.	.
16BB-/JJ	16g/JJ	.	.	.	.	.	.	.	.	.	.	.	.	.	.	.	.	.	.	.	.	.	.	.	.
16BBB-/LL	16f/LL	.	.	.	.	.	.	.	.	.	.	.	.	.	.	.	.	8.d\	głos	.	.	.	.	.	.
16BB-/	16g/	.	.	.	.	.	.	.	.	.	.	.	.	.	.	.	.	.	.	.	.	.	.	.	.
16BBB-/	16f/	.	.	.	.	.	.	.	.	.	.	.	.	.	.	.	.	.	.	.	.	.	.	.	.
16BB-/JJ	16g/JJ	.	.	.	.	.	.	.	.	.	.	.	.	.	.	.	.	16d\	nie	.	.	.	.	.	.
=45	=45	=45	=45	=45	=45	=45	=45	=45	=45	=45	=45	=45	=45	=45	=45	=45	=45	=45	=45	=45	=45	=45	=45	=45	=45
!!pagebreak:original
*xywh-208:452,1351,1992,438	*	*	*	*	*	*	*	*	*	*	*	*	*	*	*	*	*	*	*	*	*	*	*	*	*
*	*xywh-208:452,1351,1992,438	*	*	*	*	*	*	*	*	*	*	*	*	*	*	*	*	*	*	*	*	*	*	*	*
*	*	*	*xywh-208:505,1192,1938,244	*	*	*	*	*	*	*	*	*	*	*	*	*	*	*	*	*	*	*	*	*	*
*	*	*	*	*	*	*xywh-208:513,1030,1917,255	*	*	*	*	*	*	*	*	*	*	*	*	*	*	*	*	*	*	*
*	*	*	*	*	*	*	*	*	*xywh-208:538,876,1920,208	*	*	*	*	*	*	*	*	*	*	*	*	*	*	*	*
*	*	*	*	*	*	*	*	*	*	*	*	*xywh-208:527,718,1920,262	*	*	*	*	*	*	*	*	*	*	*	*	*
*	*	*	*	*	*	*	*	*	*	*	*	*	*	*	*xywh-208:527,552,1909,248	*	*	*	*	*	*	*	*	*	*
*	*	*	*	*	*	*	*	*	*	*	*	*	*	*	*	*	*	*	*	*xywh-208:513,387,1931,266	*	*	*	*	*
*	*	*	*	*	*	*	*	*	*	*	*	*	*	*	*	*	*	*	*	*	*	*	*xywh-208:516,128,1942,356	*	*
!	!	!LO:DY:rj	!	!	!	!	!	!	!	!	!	!	!	!	!	!	!	!	!	!	!	!	!	!	!
16BBB-/LL	8a-/L	f	2.r	.	.	2.r	.	.	2.r	.	.	2.r	.	.	2.ryy	.	.	[2.B-^\	grał!	2.ryy	.	.	2.ryy	.	.
16BB-/	.	.	.	.	.	.	.	.	.	.	.	.	.	.	.	.	.	.	.	.	.	.	.	.	.
16BBB-/	8g/	.	.	.	.	.	.	.	.	.	.	.	.	.	.	.	.	.	.	.	.	.	.	.	.
16BB-/JJ	.	.	.	.	.	.	.	.	.	.	.	.	.	.	.	.	.	.	.	.	.	.	.	.	.
16BBB-/LL	8f/	.	.	.	.	.	.	.	.	.	.	.	.	.	.	.	.	.	.	.	.	.	.	.	.
16BB-/	.	.	.	.	.	.	.	.	.	.	.	.	.	.	.	.	.	.	.	.	.	.	.	.	.
16BBB-/	8en/	.	.	.	.	.	.	.	.	.	.	.	.	.	.	.	.	.	.	.	.	.	.	.	.
16BB-/JJ	.	.	.	.	.	.	.	.	.	.	.	.	.	.	.	.	.	.	.	.	.	.	.	.	.
16BBB-/LL	8f/	.	.	.	.	.	.	.	.	.	.	.	.	.	.	.	.	.	.	.	.	.	.	.	.
16BB-/	.	.	.	.	.	.	.	.	.	.	.	.	.	.	.	.	.	.	.	.	.	.	.	.	.
16BBB-/	8g/J	.	.	.	.	.	.	.	.	.	.	.	.	.	.	.	.	.	.	.	.	.	.	.	.
16BB-/JJ	.	.	.	.	.	.	.	.	.	.	.	.	.	.	.	.	.	.	.	.	.	.	.	.	.
=46	=46	=46	=46	=46	=46	=46	=46	=46	=46	=46	=46	=46	=46	=46	=46	=46	=46	=46	=46	=46	=46	=46	=46	=46	=46
16BBB-/LL	8a-\L	.	2.r	.	.	2.r	.	.	2.r	.	.	2.r	.	.	2.ryy	.	.	2B-\]	.	2.ryy	.	.	2.ryy	.	.
16BB-/	.	.	.	.	.	.	.	.	.	.	.	.	.	.	.	.	.	.	.	.	.	.	.	.	.
16BBB-/	8b-\	.	.	.	.	.	.	.	.	.	.	.	.	.	.	.	.	.	.	.	.	.	.	.	.
16BB-/JJ	.	.	.	.	.	.	.	.	.	.	.	.	.	.	.	.	.	.	.	.	.	.	.	.	.
16BBB-/LL	8cc\	.	.	.	.	.	.	.	.	.	.	.	.	.	.	.	.	.	.	.	.	.	.	.	.
16BB-/	.	.	.	.	.	.	.	.	.	.	.	.	.	.	.	.	.	.	.	.	.	.	.	.	.
16BBB-/	8dd\	.	.	.	.	.	.	.	.	.	.	.	.	.	.	.	.	.	.	.	.	.	.	.	.
16BB-/JJ	.	.	.	.	.	.	.	.	.	.	.	.	.	.	.	.	.	.	.	.	.	.	.	.	.
16BBB-/LL	8ee-\	.	.	.	.	.	.	.	.	.	.	.	.	.	.	.	.	4r	.	.	.	.	.	.	.
16BB-/	.	.	.	.	.	.	.	.	.	.	.	.	.	.	.	.	.	.	.	.	.	.	.	.	.
16BBB-/	8ff\J	.	.	.	.	.	.	.	.	.	.	.	.	.	.	.	.	.	.	.	.	.	.	.	.
16BB-/JJ	.	.	.	.	.	.	.	.	.	.	.	.	.	.	.	.	.	.	.	.	.	.	.	.	.
=47||	=47||	=47||	=47||	=47||	=47||	=47||	=47||	=47||	=47||	=47||	=47||	=47||	=47||	=47||	=47||	=47||	=47||	=47||	=47||	=47||	=47||	=47||	=47||	=47||	=47||
*M12/8	*M12/8	*	*M12/8	*	*	*M12/8	*	*	*M12/8	*	*	*M12/8	*	*	*M12/8	*	*	*M12/8	*	*M12/8	*	*	*M12/8	*	*
*^	*	*	*	*	*	*	*	*	*	*	*	*	*	*	*	*	*	*	*	*	*	*	*	*	*
*xywh-208:452,1351,1992,438	*	*	*	*	*	*	*	*	*	*	*	*	*	*	*	*	*	*	*	*	*	*	*	*	*	*
*	*xywh-208:452,1351,1992,438	*	*	*	*	*	*	*	*	*	*	*	*	*	*	*	*	*	*	*	*	*	*	*	*	*
*	*	*xywh-208:452,1351,1992,438	*	*	*	*	*	*	*	*	*	*	*	*	*	*	*	*	*	*	*	*	*	*	*	*
!	!	!	!	!	!	!	!	!	!	!	!	!	!LO:TX:a:t=CHÓR	!	!	!LO:TX:a:t=Ś. WOJCIECH.:rj:i	!	!LO:DY:b:rj	!	!	!LO:TX:a:t=MATKA.:rj:i	!	!LO:DY:b:rj	!LO:TX:a:t=BRANKA.:rj:i	!	!LO:DY:b:rj
4EE-/	2.ryy	2.g\ 2.b- 2.ee-	.	4r	.	.	4r	.	.	1.r	.	.	4r	.	.	4.E-\	Mat-	f	1.ryy	.	4.g/	Mat-	f	4.b-\	Mat-	f
8E-\ 8G 8B-	.	.	.	8r	.	.	8r	.	.	.	.	.	8r	.	.	.	.	.	.	.	.	.	.	.	.	.
8E-\L 8G 8B-	.	.	.	4r	.	.	4r	.	.	.	.	.	4r	.	.	4.E-\	-ko	.	.	.	4.g/	-ko	.	4.ee-\	-ko	.
8E-\ 8G 8B-	.	.	.	.	.	.	.	.	.	.	.	.	.	.	.	.	.	.	.	.	.	.	.	.	.	.
!	!	!	!	!	!	!LO:DY:rj	!	!	!	!	!	!	!	!	!LO:DY:rj	!	!	!	!	!	!	!	!	!	!	!
8E-\J 8G 8B-	.	.	.	8E-\	Nie-	f	8r	.	.	.	.	.	8e-/	Nie-	f	.	.	.	.	.	.	.	.	.	.	.
4r	2.E-\	4.g\ 4.b- 4.ee-	.	4E-\	-chaj	.	4r	.	.	.	.	.	4e-/	-chaj	.	4.E-\	bos-	.	.	.	4.a-/	bos-	.	4.ee-\	bos-	.
8B-/	.	.	.	8B-\	prze-	.	8r	.	.	.	.	.	8b-\	prze-	.	.	.	.	.	.	.	.	.	.	.	.
4B-/	.	4.g\ 4.b- 4.ee-	.	4B-\	-pad-	.	4r	.	.	.	.	.	4b-\	-pad-	.	4.E-\	-ka	.	.	.	4.g/	-ka	.	4.ee-\	-ka	.
!	!	!	!	!	!	!	!	!	!LO:DY:rj	!	!	!	!	!	!	!	!	!	!	!	!	!	!	!	!	!
8B-/	.	.	.	8B-\	-nie	.	8B-\	Nie-	f	.	.	.	8b-\	-nie	.	.	.	.	.	.	.	.	.	.	.	.
=48	=48	=48	=48	=48	=48	=48	=48	=48	=48	=48	=48	=48	=48	=48	=48	=48	=48	=48	=48	=48	=48	=48	=48	=48	=48	=48
!!linebreak:original
*xywh-208:455,2735,1960,499	*	*	*	*	*	*	*	*	*	*	*	*	*	*	*	*	*	*	*	*	*	*	*	*	*	*
*	*xywh-208:455,2735,1960,499	*	*	*	*	*	*	*	*	*	*	*	*	*	*	*	*	*	*	*	*	*	*	*	*	*
*	*	*xywh-208:455,2735,1960,499	*	*	*	*	*	*	*	*	*	*	*	*	*	*	*	*	*	*	*	*	*	*	*	*
*	*	*	*	*xywh-208:451,2591,1974,233	*	*	*	*	*	*	*	*	*	*	*	*	*	*	*	*	*	*	*	*	*	*
*	*	*	*	*	*	*	*xywh-208:487,2440,1935,230	*	*	*	*	*	*	*	*	*	*	*	*	*	*	*	*	*	*	*
*	*	*	*	*	*	*	*	*	*	*xywh-208:487,2293,1956,248	*	*	*	*	*	*	*	*	*	*	*	*	*	*	*	*
*	*	*	*	*	*	*	*	*	*	*	*	*	*xywh-208:502,2135,1931,251	*	*	*	*	*	*	*	*	*	*	*	*	*
*	*	*	*	*	*	*	*	*	*	*	*	*	*	*	*	*xywh-208:516,2009,1899,222	*	*	*	*	*	*	*	*	*	*
*	*	*	*	*	*	*	*	*	*	*	*	*	*	*	*	*	*	*	*	*	*xywh-208:502,1858,1942,244	*	*	*	*	*
*	*	*	*	*	*	*	*	*	*	*	*	*	*	*	*	*	*	*	*	*	*	*	*	*xywh-208:473,1696,1960,266	*	*
4e-/	4E-\ 4e-	4.g\ 4.b- 4.ee-	.	4E-^\	niech	.	4e-X^\	-chaj	.	1.r	.	.	4ee-\	niech	.	(4.E-\	mat-	.	1.ryy	.	(4.g/	mat-	.	(4.ee-\	mat-	.
8B-/	8B-\	.	.	8B-\	prze-	.	8B-\	prze-	.	.	.	.	8b-\	prze-	.	.	.	.	.	.	.	.	.	.	.	.
8A-/L	4.BB-\	(4f\ 4b- 4dd	.	(8A-\L	-pad-	.	4B-\	-pad-	.	.	.	.	(8a-/L	-pad-	.	4BB-/)	.	.	.	.	4f/)	.	.	4dd\)	.	.
16B-/L	.	.	.	16B-\L	.	.	.	.	.	.	.	.	16b-/L	.	.	.	.	.	.	.	.	.	.	.	.	.
16A-/J	.	.	.	16A-\JJ)	.	.	.	.	.	.	.	.	16a-/JJ)	.	.	.	.	.	.	.	.	.	.	.	.	.
8G/J	.	8e-\) 8b- 8ee-	.	8G\	-nie	.	8B-\	-nie	.	.	.	.	8g/	-nie	.	8E-\	-ko	.	.	.	8e-/	-ko	.	8ee-\	-ko	.
4F/	2.BB-\	4.d\ 4.a- 4.b- 4.ff	.	4F\	ob-	.	4d\	ob-	.	.	.	.	4f/	ob-	.	2.BB-/	mi-	.	.	.	(4.d/	mi-	.	(4.ff\	mi-	.
8B-/	.	.	.	8B-\	-cy	.	8B-\	-cy	.	.	.	.	8b-/	-cy	.	.	.	.	.	.	.	.	.	.	.	.
8A-/L	.	4f\ 4b- 4ff	.	(8A-\L	ob-	.	(8A-/L	ob-	.	.	.	.	(8a-/L	ob-	.	.	.	.	.	.	4f/	.	.	4ff\	.	.
16A-/L	.	.	.	16A-\L	.	.	16A-/L	.	.	.	.	.	16a-/L	.	.	.	.	.	.	.	.	.	.	.	.	.
16G/J	.	.	.	16G\JJ)	.	.	16G/JJ)	.	.	.	.	.	16g/JJ)	.	.	.	.	.	.	.	.	.	.	.	.	.
8F/J	.	8a-\ 8dd	.	8F\	-cy	.	8F/	-cy	.	.	.	.	8f/	-cy	.	.	.	.	.	.	8a-/)	.	.	8dd\)	.	.
*v	*v	*	*	*	*	*	*	*	*	*	*	*	*	*	*	*	*	*	*	*	*	*	*	*	*	*
=49	=49	=49	=49	=49	=49	=49	=49	=49	=49	=49	=49	=49	=49	=49	=49	=49	=49	=49	=49	=49	=49	=49	=49	=49	=49
4E-\	4g\ 4ee-	.	4.E-\	ród!	.	[4E-/	ród!	.	4b-\	Niech	.	4.e-/	ród!	.	4.BB-/	-ła	.	1.ryy	.	4.g/	-ła	.	4.ee-\	-ła	.
8GG^/ 8G	8bb-^<\	.	.	.	.	8E-/]	.	.	8b-\	prze-	.	.	.	.	.	.	.	.	.	.	.	.	.	.	.
4FF/ 4F	8aa-\L	.	4r	.	.	4r	.	.	4b-\	-pad-	.	4r	.	.	4r	.	.	.	.	4r	.	.	4r	.	.
.	16aa-\L	.	.	.	.	.	.	.	.	.	.	.	.	.	.	.	.	.	.	.	.	.	.	.	.
.	16gg\J	.	.	.	.	.	.	.	.	.	.	.	.	.	.	.	.	.	.	.	.	.	.	.	.
8BB-/ 8B-	8ff\J	.	8r	.	.	8r	.	.	8b-\	-nie	.	8r	.	.	8r	.	.	.	.	8r	.	.	8r	.	.
!	!	!LO:HP:b:t=decres.	!	!	!	!	!	!	!	!	!	!	!	!	!	!	!	!	!	!	!	!	!	!	!
4EE-/ 4E-	8ee-\L	>	4r	.	.	4r	.	.	4ee-\	ob-	.	4r	.	.	4r	.	.	.	.	4r	.	.	4r	.	.
.	16ee-\L	.	.	.	.	.	.	.	.	.	.	.	.	.	.	.	.	.	.	.	.	.	.	.	.
.	16dd\J	.	.	.	.	.	.	.	.	.	.	.	.	.	.	.	.	.	.	.	.	.	.	.	.
8AA-/ 8A-	8cc\J	.	8r	.	.	8r	.	.	8cc\	-cy	.	8r	.	.	8r	.	.	.	.	8r	.	.	8r	.	.
8BB-/L 8B-	8b-/L	.	4r	.	.	4r	.	.	4.b-\	ród!	.	4r	.	.	4r	.	.	.	.	4r	.	.	4r	.	.
8BBB-/ 8BB-	16a-/L	.	.	.	.	.	.	.	.	.	.	.	.	.	.	.	.	.	.	.	.	.	.	.	.
.	16g/J	.	.	.	.	.	.	.	.	.	.	.	.	.	.	.	.	.	.	.	.	.	.	.	.
8DD/J 8D	8f/J	.	8r	.	.	8r	.	.	.	.	.	8r	.	.	8r	.	.	.	.	8r	.	.	8r	.	.
=50	=50	=50	=50	=50	=50	=50	=50	=50	=50	=50	=50	=50	=50	=50	=50	=50	=50	=50	=50	=50	=50	=50	=50	=50	=50
!!pagebreak:original
*^	*	*	*	*	*	*	*	*	*	*	*	*	*	*	*	*	*	*	*	*	*	*	*	*	*
*xywh-209:142,1305,2018,439	*	*	*	*	*	*	*	*	*	*	*	*	*	*	*	*	*	*	*	*	*	*	*	*	*	*
*	*xywh-209:142,1305,2018,439	*	*	*	*	*	*	*	*	*	*	*	*	*	*	*	*	*	*	*	*	*	*	*	*	*
*	*	*xywh-209:142,1305,2018,439	*	*	*	*	*	*	*	*	*	*	*	*	*	*	*	*	*	*	*	*	*	*	*	*
*	*	*	*	*xywh-209:167,1135,1978,249	*	*	*	*	*	*	*	*	*	*	*	*	*	*	*	*	*	*	*	*	*	*
*	*	*	*	*	*	*	*xywh-209:179,1003,1955,214	*	*	*	*	*	*	*	*	*	*	*	*	*	*	*	*	*	*	*
*	*	*	*	*	*	*	*	*	*	*xywh-209:179,851,1948,237	*	*	*	*	*	*	*	*	*	*	*	*	*	*	*	*
*	*	*	*	*	*	*	*	*	*	*	*	*	*xywh-209:222,726,1913,164	*	*	*	*	*	*	*	*	*	*	*	*	*
*	*	*	*	*	*	*	*	*	*	*	*	*	*	*	*	*xywh-209:209,593,1935,194	*	*	*	*	*	*	*	*	*	*
*	*	*	*	*	*	*	*	*	*	*	*	*	*	*	*	*	*	*	*	*	*xywh-209:209,436,1935,202	*	*	*	*	*
*	*	*	*	*	*	*	*	*	*	*	*	*	*	*	*	*	*	*	*	*	*	*	*	*xywh-209:209,174,1963,322	*	*
4EE-\ 4E-	2.ryy	4.g/ 4.b-	.	4r	.	.	4r	.	.	4r	.	.	1.r	.	.	4.E-\	tęs-	.	1.ryy	.	4.g/	tęs-	.	4.b-\	tęs-	.
8E-\ 8G 8B-	.	.	.	8r	.	.	8r	.	.	8r	.	.	.	.	.	.	.	.	.	.	.	.	.	.	.	.
8E-\L 8G 8B-	.	4.g\ 4.b- 4.ee-	.	4r	.	.	4r	.	.	4r	.	.	.	.	.	4.E-\	-knéj	.	.	.	4.g/	-knéj	.	4.ee-\	-knéj	.
8E-\ 8G 8B-	.	.	.	.	.	.	.	.	.	.	.	.	.	.	.	.	.	.	.	.	.	.	.	.	.	.
8E-\J 8G 8B-	.	.	.	8r	.	.	8r	.	.	8r	.	.	.	.	.	.	.	.	.	.	.	.	.	.	.	.
4E-/	2.E-\	4.g\ 4.b- 4.ee-	.	4E-\	on	.	4E-/	on	.	4e-/	on	.	.	.	.	4.E-\	du-	.	.	.	4.g/	du-	.	4.ee-\	du-	.
8B-/	.	.	.	8B-\	tu	.	8B-\	tu	.	8b-\	tu	.	.	.	.	.	.	.	.	.	.	.	.	.	.	.
8B-/L	.	4.g\ 4.b- 4.ee-	.	4B-\	wle-	.	4B-\	wle-	.	4b-\	wle-	.	.	.	.	4.E-\	-szy	.	.	.	4.g/	-szy	.	4.ee-\	-szy	.
8B-/	.	.	.	.	.	.	.	.	.	.	.	.	.	.	.	.	.	.	.	.	.	.	.	.	.	.
8B-/J	.	.	.	8B-\	-ci	.	8B-\	-ci	.	8b-\	-ci	.	.	.	.	.	.	.	.	.	.	.	.	.	.	.
=51	=51	=51	=51	=51	=51	=51	=51	=51	=51	=51	=51	=51	=51	=51	=51	=51	=51	=51	=51	=51	=51	=51	=51	=51	=51	=51
4ryy	4.E-\ e-	4.g\ 4.b- 4.ee-	.	4E-^\	on	.	4e-^\	on	.	4ee-^\	on	.	1.r	.	.	(4.E-\	wie-	.	1.ryy	.	(4.g/	wie-	.	(4.ee-\	wie-	.
8B-/	.	.	.	8B-\	tu	.	8B-\	tu	.	8b-\	tu	.	.	.	.	.	.	.	.	.	.	.	.	.	.	.
!LO:N:vis=4	!	!	!	!	!	!	!	!	!	!	!	!	!	!	!	!	!	!	!	!	!	!	!	!	!	!
8A-/	4E-\	4f\ 4dd	.	(8A-\L	wle-	.	(8A-/L	wle-	.	(8a-/L	wle-	.	.	.	.	4E-\)	.	.	.	.	4f/)	.	.	4dd\)	.	.
16G/L	.	.	.	16G\L	.	.	16G/L	.	.	16g/L	.	.	.	.	.	.	.	.	.	.	.	.	.	.	.	.
16F/	.	.	.	16F\JJ)	.	.	16F/JJ)	.	.	16f/JJ)	.	.	.	.	.	.	.	.	.	.	.	.	.	.	.	.
8E-/J	8E-\	8g\ 8ee-	.	8E-\	-ci	.	8E-/	-ci	.	8e-/	-ci	.	.	.	.	8E-\	-czna	.	.	.	8g/	-czna	.	8ee-\	-czna	.
(4D\	4ryy	4.f\ 4.g 4.ff	.	4D\	w na-	.	4D/	w na-	.	4d/	w na-	.	.	.	.	2.D\	chlu-	.	.	.	(4.f/	chlu-	.	2.ff\	chlu-	.
8G\)	8ryy	.	.	8G\	-szą	.	8F/	-szą	.	8g/	-szą	.	.	.	.	.	.	.	.	.	.	.	.	.	.	.
8F/L	4.GG\	4an\ 4ff	.	8F\	na-	.	(8F/	na-	.	(8f/	na-	.	.	.	.	.	.	.	.	.	4an/	.	.	.	.	.
16F/L	.	.	.	16F\LL	.	.	16F/LL	.	.	16f/LL	.	.	.	.	.	.	.	.	.	.	.	.	.	.	.	.
16E-/J	.	.	.	16E-\JJ	.	.	16E-/JJ)	.	.	16e-/JJ)	.	.	.	.	.	.	.	.	.	.	.	.	.	.	.	.
8D/J	.	8bn\ 8ff	.	8D\	-szą	.	8D/	-szą	.	8d/	-szą	.	.	.	.	.	.	.	.	.	8bn/)	.	.	.	.	.
=52	=52	=52	=52	=52	=52	=52	=52	=52	=52	=52	=52	=52	=52	=52	=52	=52	=52	=52	=52	=52	=52	=52	=52	=52	=52	=52
!!linebreak:original
*	*	*^	*	*	*	*	*	*	*	*	*	*	*	*	*	*	*	*	*	*	*	*	*	*	*	*
*xywh-209:127,2772,2010,477	*	*	*	*	*	*	*	*	*	*	*	*	*	*	*	*	*	*	*	*	*	*	*	*	*	*	*
*	*xywh-209:127,2772,2010,477	*	*	*	*	*	*	*	*	*	*	*	*	*	*	*	*	*	*	*	*	*	*	*	*	*	*
*	*	*xywh-209:127,2772,2010,477	*	*	*	*	*	*	*	*	*	*	*	*	*	*	*	*	*	*	*	*	*	*	*	*	*
*	*	*	*	*	*xywh-209:152,2599,1970,269	*	*	*	*	*	*	*	*	*	*	*	*	*	*	*	*	*	*	*	*	*	*
*	*	*	*	*	*	*	*	*xywh-209:187,2457,1935,232	*	*	*	*	*	*	*	*	*	*	*	*	*	*	*	*	*	*	*
*	*	*	*	*	*	*	*	*	*	*	*xywh-209:177,2315,1983,249	*	*	*	*	*	*	*	*	*	*	*	*	*	*	*	*
*	*	*	*	*	*	*	*	*	*	*	*	*	*	*xywh-209:149,2150,1990,242	*	*	*	*	*	*	*	*	*	*	*	*	*
*	*	*	*	*	*	*	*	*	*	*	*	*	*	*	*	*	*xywh-209:212,2037,1908,202	*	*	*	*	*	*	*	*	*	*
*	*	*	*	*	*	*	*	*	*	*	*	*	*	*	*	*	*	*	*	*	*	*xywh-209:207,1875,1910,222	*	*	*	*	*
*	*	*	*	*	*	*	*	*	*	*	*	*	*	*	*	*	*	*	*	*	*	*	*	*	*xywh-209:187,1693,1928,239	*	*
4C/	2.C\	2.cc\ 2.ee-	2.ryy	.	[2.C/	sieć	.	[2.C/	sieć	.	[2.c/	sieć	.	4g/	słoń-	.	4.C/	-bo,	.	1.ryy	.	4.cc\	-bo,	.	4.ee-\	-bo,	.
8G/	.	.	.	.	.	.	.	.	.	.	.	.	.	8g/	-ce	.	.	.	.	.	.	.	.	.	.	.	.
4G/	.	.	.	.	.	.	.	.	.	.	.	.	.	4g/	ty	.	4r	.	.	.	.	4r	.	.	4r	.	.
8G/	.	.	.	.	.	.	.	.	.	.	.	.	.	8g/	za-	.	8r	.	.	.	.	8r	.	.	8r	.	.
4c/	4.C\	4.g\ 4.cc 4.ee-	4.ryy	.	4.C/]	.	.	4.C/]	.	.	4.c/]	.	.	4cc^\	-gaś-	.	(4.E-\	wto-	.	.	.	(4.g/	wto-	.	(4.ee-\	wto-	.
8G/	.	.	.	.	.	.	.	.	.	.	.	.	.	8g/	-nij	.	.	.	.	.	.	.	.	.	.	.	.
8c/L	4C\	4een/	8g\L	.	4r	.	.	8r	.	.	8r	.	.	8cc\	za-	.	4C\)	.	.	.	.	8g/L	.	.	4een\)	.	.
16B-/L	.	.	16g\L	.	.	.	.	4r	.	.	4r	.	.	(16b-\LL	-gaś-	.	.	.	.	.	.	16g/L	.	.	.	.	.
16A-/J	.	.	16a-\J	.	.	.	.	.	.	.	.	.	.	16a-\JJ)	.	.	.	.	.	.	.	16a-/JJ)	.	.	.	.	.
8G/J	8C\	8ee/	8b-\J	.	8r	.	.	.	.	.	.	.	.	8g/	-nij	.	8C\	-bie	.	.	.	8b-/	-bie	.	8ee\	-bie	.
=53	=53	=53	=53	=53	=53	=53	=53	=53	=53	=53	=53	=53	=53	=53	=53	=53	=53	=53	=53	=53	=53	=53	=53	=53	=53	=53	=53
4F/	2.F\	4.a-\ 4.ff	4.ryy	<	4r	.	.	4r	.	.	4f/	słoń-	.	(4f/	w przód	.	4.F\	wia-	.	1.ryy	.	4.a-/	wia-	.	4.ff\	wia-	.
8c/	.	.	.	.	8r	.	.	8r	.	.	8cc\	-ce	.	8cc\)	.	.	.	.	.	.	.	.	.	.	.	.	.
8c^/L	.	4.a-\ 4.cc 4.ff	4.ryy	[	4r	.	.	4r	.	.	4cc\	słoń-	.	4cc\	słoń-	.	4.F\	-ra	.	.	.	4.a-/	-ra	.	4.ff\	-ra	.
8c^/	.	.	.	.	.	.	.	.	.	.	.	.	.	.	.	.	.	.	.	.	.	.	.	.	.	.	.
8c^/J	.	.	.	.	8r	.	.	8r	.	.	8cc\	-ce	.	8cc\	-ce	.	.	.	.	.	.	.	.	.	.	.	.
4f/	4.F\	4.a-\ 4.cc 4.ff	4.ryy	.	4F\	słoń-	.	4F/	słoń-	.	4ff\	ty	.	4ff\	ty	.	4.F\	wto-	.	.	.	4.a-/	wto-	.	4.ff\	wto-	.
8c/	.	.	.	.	8c\	-ce	.	8c\	-ce	.	8cc\	za-	.	8cc\	za-	.	.	.	.	.	.	.	.	.	.	.	.
8c/L	4ryy	4een/	8g\L	.	8c\	za-	.	8c\	za-	.	8b-/L	-gaś-	.	8b-/L	-gaś-	.	4.C/	-bie	.	.	.	(8g/L	-bie	.	4.een\	-bie	.
16B-/L	.	.	16g\L	.	8c\	-gaś-	.	8c\	-gaś-	.	16b-/L	.	.	16b-/L	.	.	.	.	.	.	.	16g/L	.	.	.	.	.
16A-/J	.	.	16a-\J	.	.	.	.	.	.	.	16a-/JJ	.	.	16a-/JJ	.	.	.	.	.	.	.	16a-/J	.	.	.	.	.
8G/J	8ryy	8ee/	8b-\J	.	8c\	-nij	.	8c\	-nij	.	8g/	-nij	.	8g/	-nij	.	.	.	.	.	.	8b-/J)	.	.	.	.	.
*	*	*v	*v	*	*	*	*	*	*	*	*	*	*	*	*	*	*	*	*	*	*	*	*	*	*	*	*
=54	=54	=54	=54	=54	=54	=54	=54	=54	=54	=54	=54	=54	=54	=54	=54	=54	=54	=54	=54	=54	=54	=54	=54	=54	=54	=54
!!pagebreak:original
*xywh-210:499,1218,1921,416	*	*	*	*	*	*	*	*	*	*	*	*	*	*	*	*	*	*	*	*	*	*	*	*	*	*
*	*xywh-210:499,1218,1921,416	*	*	*	*	*	*	*	*	*	*	*	*	*	*	*	*	*	*	*	*	*	*	*	*	*
*	*	*xywh-210:499,1218,1921,416	*	*	*	*	*	*	*	*	*	*	*	*	*	*	*	*	*	*	*	*	*	*	*	*
*	*	*	*	*xywh-210:505,1045,1921,227	*	*	*	*	*	*	*	*	*	*	*	*	*	*	*	*	*	*	*	*	*	*
*	*	*	*	*	*	*	*xywh-210:529,913,1900,197	*	*	*	*	*	*	*	*	*	*	*	*	*	*	*	*	*	*	*
*	*	*	*	*	*	*	*	*	*	*xywh-210:532,775,1888,200	*	*	*	*	*	*	*	*	*	*	*	*	*	*	*	*
*	*	*	*	*	*	*	*	*	*	*	*	*	*xywh-210:502,613,1900,212	*	*	*	*	*	*	*	*	*	*	*	*	*
*	*	*	*	*	*	*	*	*	*	*	*	*	*	*	*	*xywh-210:514,463,1909,233	*	*	*	*	*	*	*	*	*	*
*	*	*	*	*	*	*	*	*	*	*	*	*	*	*	*	*	*	*	*	*	*xywh-210:526,331,1897,206	*	*	*	*	*
*	*	*	*	*	*	*	*	*	*	*	*	*	*	*	*	*	*	*	*	*	*	*	*	*xywh-210:496,85,1921,296	*	*
(4F\	4.ryy	4.a-\ 4.ff	.	(4F\	wprzód	.	(4f\	wprzód	.	4f/	wprzód	.	(4f/	wprzód	.	(4.F\	ser-	.	1.ryy	.	(4.a-\	ser-	.	(4.ff\	ser-	.
8c\)	.	.	.	8c\)	.	.	8c\)	.	.	8cc\	za-	.	8cc\)	.	.	.	.	.	.	.	.	.	.	.	.	.
8c/L	4C\	4g\ 4cc 4een	.	(8B-\L	a	.	(8B-\L	a	.	4cc\	-gas-	.	(8b-\L	a	.	4C\)	.	.	.	.	4cc\)	.	.	4een\)	.	.
16B-/L	.	.	.	16B-\L	.	.	16B-\L	.	.	.	.	.	16b-\L	.	.	.	.	.	.	.	.	.	.	.	.	.
16A-/J	.	.	.	16A-\JJ)	.	.	16A-\JJ)	.	.	.	.	.	16a-\JJ)	.	.	.	.	.	.	.	.	.	.	.	.	.
8G/J	8ryy	8cc\	.	8G\	zło-	.	8G/	zło-	.	8cc\	-nij	.	8g/	zło-	.	8C\	-ca	.	.	.	8cc\	-ca	.	8cc\	-ca	.
(4F\	2.ryy	(4cc\ 4aa-	.	4F\	-czyń-	.	4F/	-czyń-	.	4.cc\	wprzód	.	4f/	-czyń-	.	(4F\	si-	.	.	.	(4cc\	si-	.	(4aa-\	si-	.
.	.	.	<	.	.	.	.	.	.	.	.	.	.	.	.	.	.	.	.	.	.	.	.	.	.	.
8G\	.	8b-\ 8gg	.	8G\	-com	.	8G/	-com	.	.	.	.	8g/	-com	.	8G\	.	.	.	.	8b-\	.	.	8gg\	.	.
4A-\	.	4a-\ 4ff	.	4A-\	tym	.	4A-/	tym	.	4r	.	.	4a-/	tym	.	4A-\	.	.	.	.	4a-/	.	.	4ff\	.	.
8An\)	.	8g\) 8ee-X	[	8An\	nie	.	8An/	nie	.	8r	.	.	8an/	nie	.	8An\)	.	.	.	.	8g/)	.	.	8ee-X\)	.	.
=55	=55	=55	=55	=55	=55	=55	=55	=55	=55	=55	=55	=55	=55	=55	=55	=55	=55	=55	=55	=55	=55	=55	=55	=55	=55	=55
4.BB-\ 4.B-	4ryy	4f\ 4dd	.	4.B-\	świeć!	.	4.B-\	świeć!	.	(4.cc\	a	.	4.b-\	świeć!	.	4.B-\	-ła;	.	1.ryy	.	4.f/	-ła;	.	4.dd\	-ła;	.
!	!	!	!LO:DY:rj	!	!	!	!	!	!	!	!	!	!	!	!	!	!	!	!	!	!	!	!	!	!	!
.	8ryy	(16aa-\LL	mf	.	.	.	.	.	.	.	.	.	.	.	.	.	.	.	.	.	.	.	.	.	.	.
.	.	16gg\JJ	.	.	.	.	.	.	.	.	.	.	.	.	.	.	.	.	.	.	.	.	.	.	.	.
4B-/	4.BB-\	16aa-\LL	.	4r	.	.	4r	.	.	4b-\)	.	.	4r	.	.	4r	.	.	.	.	4r	.	.	4r	.	.
.	.	16gg\	.	.	.	.	.	.	.	.	.	.	.	.	.	.	.	.	.	.	.	.	.	.	.	.
.	.	16ff\	.	.	.	.	.	.	.	.	.	.	.	.	.	.	.	.	.	.	.	.	.	.	.	.
.	.	16ee-\	.	.	.	.	.	.	.	.	.	.	.	.	.	.	.	.	.	.	.	.	.	.	.	.
8c/	.	16dd\	.	8r	.	.	8r	.	.	8cc\	zło-	.	8r	.	.	8r	.	.	.	.	8r	.	.	8r	.	.
.	.	16cc\JJ)	.	.	.	.	.	.	.	.	.	.	.	.	.	.	.	.	.	.	.	.	.	.	.	.
4B-/	2.BB-\	4dd\	.	4r	.	.	4r	.	.	4b-\	-czyń-	.	4r	.	.	4r	.	.	.	.	4r	.	.	4r	.	.
16A-/LL	.	(16ff\LL	.	8r	.	.	8r	.	.	(16a-/LL	-com	.	8r	.	.	8r	.	.	.	.	8r	.	.	8r	.	.
16G/JJ	.	16een\JJ	.	.	.	.	.	.	.	16g/JJ)	.	.	.	.	.	.	.	.	.	.	.	.	.	.	.	.
4A-/	.	16ff\LL	.	4r	.	.	4r	.	.	4a-/	tym	.	4r	.	.	4r	.	.	.	.	4r	.	.	4r	.	.
.	.	16ee-X\	.	.	.	.	.	.	.	.	.	.	.	.	.	.	.	.	.	.	.	.	.	.	.	.
.	.	16dd\	.	.	.	.	.	.	.	.	.	.	.	.	.	.	.	.	.	.	.	.	.	.	.	.
.	.	16cc\	.	.	.	.	.	.	.	.	.	.	.	.	.	.	.	.	.	.	.	.	.	.	.	.
8B-/	.	16b-\	.	8r	.	.	8r	.	.	8f/	nie	.	8r	.	.	8r	.	.	.	.	8r	.	.	8r	.	.
.	.	16a-\JJ)	.	.	.	.	.	.	.	.	.	.	.	.	.	.	.	.	.	.	.	.	.	.	.	.
=56	=56	=56	=56	=56	=56	=56	=56	=56	=56	=56	=56	=56	=56	=56	=56	=56	=56	=56	=56	=56	=56	=56	=56	=56	=56	=56
!!linebreak:original
*xywh-210:436,2603,2014,599	*	*	*	*	*	*	*	*	*	*	*	*	*	*	*	*	*	*	*	*	*	*	*	*	*	*
*	*xywh-210:436,2603,2014,599	*	*	*	*	*	*	*	*	*	*	*	*	*	*	*	*	*	*	*	*	*	*	*	*	*
*	*	*xywh-210:436,2603,2014,599	*	*	*	*	*	*	*	*	*	*	*	*	*	*	*	*	*	*	*	*	*	*	*	*
*	*	*	*	*xywh-210:469,2486,1981,215	*	*	*	*	*	*	*	*	*	*	*	*	*	*	*	*	*	*	*	*	*	*
*	*	*	*	*	*	*	*xywh-210:475,2331,1945,218	*	*	*	*	*	*	*	*	*	*	*	*	*	*	*	*	*	*	*
*	*	*	*	*	*	*	*	*	*	*xywh-210:484,2205,1900,182	*	*	*	*	*	*	*	*	*	*	*	*	*	*	*	*
*	*	*	*	*	*	*	*	*	*	*	*	*	*xywh-210:511,2046,1885,206	*	*	*	*	*	*	*	*	*	*	*	*	*
*	*	*	*	*	*	*	*	*	*	*	*	*	*	*	*	*xywh-210:478,1917,1918,197	*	*	*	*	*	*	*	*	*	*
*	*	*	*	*	*	*	*	*	*	*	*	*	*	*	*	*	*	*	*	*	*xywh-210:502,1755,1879,218	*	*	*	*	*
*	*	*	*	*	*	*	*	*	*	*	*	*	*	*	*	*	*	*	*	*	*	*	*	*xywh-210:499,1626,1876,188	*	*
!	!	!	!LO:DY:rj	!	!	!	!	!	!	!	!	!	!	!	!	!	!	!	!	!	!	!	!	!	!	!
4E-/	4EE-\	8g\L	f	4r	.	.	4E-/	słoń-	.	4.e-/	swieć	.	4e-/	słoń-	.	4.E-\	chroń	.	1.ryy	.	4.g/	chroń	.	4.b-\	chroń	.
.	.	(16b-\L	.	.	.	.	.	.	.	.	.	.	.	.	.	.	.	.	.	.	.	.	.	.	.	.
.	.	16ee-\	.	.	.	.	.	.	.	.	.	.	.	.	.	.	.	.	.	.	.	.	.	.	.	.
8B-/	8E-\	16gg\	.	8r	.	.	8B-\	-ce	.	.	.	.	8b-\	-ce	.	.	.	.	.	.	.	.	.	.	.	.
.	.	16bb-\JJ)	.	.	.	.	.	.	.	.	.	.	.	.	.	.	.	.	.	.	.	.	.	.	.	.
4B-/	4E-\	4.gg\ 4.bb- 4.eee-	.	4r	.	.	4B-\	ty	.	4r	.	.	4b-\	ty	.	4.E-\	nas	.	.	.	4.g/	nas	.	4.ee-\	nas	.
8B-/	8E-\	.	.	8r	.	.	8B-\	za-	.	8r	.	.	8b-\	za-	.	.	.	.	.	.	.	.	.	.	.	.
4e-/	4.E-\	4.gg\ 4.bb- 4.eee-	.	4E-\	a	.	4e-^\	-gaś-	.	4r	.	.	4ee-\	-gaś-	.	4.E-\	przed	.	.	.	4.g/	przed	.	4.ee-\	przed	.
8B-/	.	.	.	8B-\	zło-	.	8B-\	-nij	.	8r	.	.	8b-\	-nij	.	.	.	.	.	.	.	.	.	.	.	.
8A-/L	4.BB-\	4ff\ 4bb- 4ddd	.	4B-\	-czyń-	.	8A-/	za-	.	4r	.	.	8a-/	za-	.	4BB-/	blis-	.	.	.	(4f/	blis-	.	(4dd\	blis-	.
16B-/L	.	.	.	.	.	.	(16B-/LL	-gaś-	.	.	.	.	(16b-/LL	-gaś-	.	.	.	.	.	.	.	.	.	.	.	.
16A-/J	.	.	.	.	.	.	16A-/JJ)	.	.	.	.	.	16a-/JJ)	.	.	.	.	.	.	.	.	.	.	.	.	.
8G/J	.	8ee-\ 8bb- 8eee-	.	8B-\	-com	.	8G/	-nij	.	8r	.	.	8g/	-nij	.	8E-\	-ką	.	.	.	8e-/)	.	.	8ff\)	.	.
=57	=57	=57	=57	=57	=57	=57	=57	=57	=57	=57	=57	=57	=57	=57	=57	=57	=57	=57	=57	=57	=57	=57	=57	=57	=57	=57
4F/	4.BB-\	4.dd:\ 4.aa-: 4.bb-: 4.fff:	.	4BB-/	tym	.	4F/	wprzód	.	1.r	.	.	4f/	wprzod	.	2.BB-/	zgu-	.	1.ryy	.	4.d/	-ką	.	4.ff\	-ką	.
8B-/	.	.	.	8r	.	.	8B-/	a	.	.	.	.	8b-/	a	.	.	.	.	.	.	.	.	.	.	.	.
8A-/L	4.BB-\	4ff\ 4bb- 4fff	.	4.BB-/	nie	.	8A-/	zło-	.	.	.	.	8a-/	zło-	.	.	.	.	.	.	(4f/	zgu-	.	(4ff\	zgu-	.
16A-/L	.	.	.	.	.	.	(16A-/LL	-czyń-	.	.	.	.	16a-/LL	-czyń-	.	.	.	.	.	.	.	.	.	.	.	.
16G/J	.	.	.	.	.	.	16G/JJ)	.	.	.	.	.	16g/JJ	.	.	.	.	.	.	.	.	.	.	.	.	.
8F/J	.	8aa-\ 8ddd	.	.	.	.	8F/	-com	.	.	.	.	8f/	-com	.	.	.	.	.	.	8a-/)|>	.	.	8dd\)	.	.
4E-/	4E-\	4gg\ 4eee-	.	4.E-\	świeć!	.	4.E-/	nie	.	.	.	.	4.e-/	nie	.	4.E-\	-bą!	.	.	.	4.g/	-bą!	.	4.ee-\	-bą!	.
!	!	!	!LO:DY:rj	!	!	!	!	!	!	!	!	!	!	!	!	!	!	!	!	!	!	!	!	!	!	!
8C\ 8c	8ryy	(8g\ 8an 8ee-	p	.	.	.	.	.	.	.	.	.	.	.	.	.	.	.	.	.	.	.	.	.	.	.
4D\ 4d	4ryy	4g\ 4b- 4dd	.	4r	.	.	4.E-/	świeć!	.	.	.	.	4e-/	świeć!	.	4r	.	.	.	.	4r	.	.	4r	.	.
8D\ 8d	8ryy	8a\) 8cc 8ff#X	.	8r	.	.	.	.	.	.	.	.	8r	.	.	8r	.	.	.	.	8r	.	.	8r	.	.
*v	*v	*	*	*	*	*	*	*	*	*	*	*	*	*	*	*	*	*	*	*	*	*	*	*	*	*
=58	=58	=58	=58	=58	=58	=58	=58	=58	=58	=58	=58	=58	=58	=58	=58	=58	=58	=58	=58	=58	=58	=58	=58	=58	=58
!!pagebreak:original
*xywh-211:215,1288,1987,443	*	*	*	*	*	*	*	*	*	*	*	*	*	*	*	*	*	*	*	*	*	*	*	*	*
*	*xywh-211:215,1288,1987,443	*	*	*	*	*	*	*	*	*	*	*	*	*	*	*	*	*	*	*	*	*	*	*	*
*	*	*	*xywh-211:269,1102,1924,212	*	*	*	*	*	*	*	*	*	*	*	*	*	*	*	*	*	*	*	*	*	*
*	*	*	*	*	*	*xywh-211:263,970,1918,185	*	*	*	*	*	*	*	*	*	*	*	*	*	*	*	*	*	*	*
*	*	*	*	*	*	*	*	*	*xywh-211:263,817,1921,188	*	*	*	*	*	*	*	*	*	*	*	*	*	*	*	*
*	*	*	*	*	*	*	*	*	*	*	*	*xywh-211:275,664,1885,200	*	*	*	*	*	*	*	*	*	*	*	*	*
*	*	*	*	*	*	*	*	*	*	*	*	*	*	*	*xywh-211:281,532,1891,182	*	*	*	*	*	*	*	*	*	*
*	*	*	*	*	*	*	*	*	*	*	*	*	*	*	*	*	*	*	*	*xywh-211:281,391,1888,167	*	*	*	*	*
*	*	*	*	*	*	*	*	*	*	*	*	*	*	*	*	*	*	*	*	*	*	*	*xywh-211:272,215,1915,218	*	*
!	!	!	!	!	!	!	!	!	!	!	!	!	!	!	!	!	!LO:DY:rj	!	!	!	!	!LO:DY:rj	!	!	!LO:DY:rj
4GG\ 4BB- 4D 4G	4b-\ 4dd 4gg	f	4r	.	.	4r	.	.	4r	.	.	4r	.	.	2.G\	Chry-	f	1.ryy	.	2.b-\	Chry-	f	2.gg\	Chry-	f
16GG\LL 16BB- 16D 16G	16g\LL 16b- 16dd 16gg	.	16r	.	.	16r	.	.	16r	.	.	16r	.	.	.	.	.	.	.	.	.	.	.	.	.
!	!	!	!	!	!LO:DY:rj	!	!	!LO:DY:rj	!	!	!LO:DY:rj	!	!	!LO:DY:rj	!	!	!	!	!	!	!	!	!	!	!
16GG\JJ 16BB- 16D 16G	16g\JJ 16b- 16dd 16gg	.	16G\	Nie-	f	16G/	Nie-	f	16g/	Nie-	f	16gg\	Nie-	f	.	.	.	.	.	.	.	.	.	.	.
4GG\ 4BB- 4D 4G	4g\ 4b- 4dd 4gg	.	4G\	-chaj	.	4G/	-chaj	.	4g/	-chaj	.	4gg\	-chaj	.	.	.	.	.	.	.	.	.	.	.	.
16GG\LL 16BB- 16D 16G	16g\LL 16b- 16dd 16gg	.	16r	.	.	16r	.	.	16r	.	.	16r	.	.	.	.	.	.	.	.	.	.	.	.	.
16GG\JJ 16BB- 16D 16G	16g\JJ 16b- 16dd 16gg	.	16G\	prze-	.	16G/	prze-	.	16g/	prze-	.	16gg\	prze-	.	.	.	.	.	.	.	.	.	.	.	.
4.GG\ 4.BB- 4.D 4.G	8g\L 8b- 8dd 8gg	.	4.G\	-pad-	.	4.G/	-pad-	.	4.g/	-pad-	.	4.gg\	-pad-	.	4.G\	-ste	.	.	.	4b-\	-ste	.	(8gg\L	-ste	.
.	8b-^\	.	.	.	.	.	.	.	.	.	.	.	.	.	.	.	.	.	.	.	.	.	8b-\J)	.	.
.	8dd^\J	.	.	.	.	.	.	.	.	.	.	.	.	.	.	.	.	.	.	8dd\	prze-	.	8dd\	prze-	.
8G^\L	16g\LL	.	8G\	-nie	.	8G/	-nie	.	8g/	-nie	.	8gg\	-nie	.	4.G\	prze-	.	.	.	[4.g/	-bacz	.	[4.g/	-bacz	.
.	16dd\	.	.	.	.	.	.	.	.	.	.	.	.	.	.	.	.	.	.	.	.	.	.	.	.
8BB-^\	16cc#X\	.	8BB-/	o-	.	8B-\	o-	.	8b-\	o-	.	8b-\	o-	.	.	.	.	.	.	.	.	.	.	.	.
.	16dd\	.	.	.	.	.	.	.	.	.	.	.	.	.	.	.	.	.	.	.	.	.	.	.	.
8D^\J	16een\	.	8D\	-bcy	.	8d\	-bcy	.	8dd\	-bcy	.	8dd\	-bcy	.	.	.	.	.	.	.	.	.	.	.	.
.	16ff#X\JJ	.	.	.	.	.	.	.	.	.	.	.	.	.	.	.	.	.	.	.	.	.	.	.	.
=59	=59	=59	=59	=59	=59	=59	=59	=59	=59	=59	=59	=59	=59	=59	=59	=59	=59	=59	=59	=59	=59	=59	=59	=59	=59
*^	*	*	*	*	*	*	*	*	*	*	*	*	*	*	*	*	*	*	*	*	*	*	*	*	*
*xywh-211:215,1288,1987,443	*	*	*	*	*	*	*	*	*	*	*	*	*	*	*	*	*	*	*	*	*	*	*	*	*	*
*	*xywh-211:215,1288,1987,443	*	*	*	*	*	*	*	*	*	*	*	*	*	*	*	*	*	*	*	*	*	*	*	*	*
*	*	*xywh-211:215,1288,1987,443	*	*	*	*	*	*	*	*	*	*	*	*	*	*	*	*	*	*	*	*	*	*	*	*
4.G/	4GG\	16gg\LL	.	4GG/	ród	.	4G/	ród	.	4g/	ród	.	4g/	ród	.	4.G\	-bacz	.	1.ryy	.	4g/]	.	.	4g/]	.	.
.	.	16ddd\	.	.	.	.	.	.	.	.	.	.	.	.	.	.	.	.	.	.	.	.	.	.	.	.
.	.	16ccc#X\	.	.	.	.	.	.	.	.	.	.	.	.	.	.	.	.	.	.	.	.	.	.	.	.
.	.	16ddd\	.	.	.	.	.	.	.	.	.	.	.	.	.	.	.	.	.	.	.	.	.	.	.	.
.	16GG\LL	16bb-\	.	(16GG/LL	on	.	(16G/LL	on	.	(16g/LL	on	.	(16g/LL	on	.	.	.	.	.	.	8r	.	.	8r	.	.
.	16AAn\JJ	16aan\JJ	.	16AAn/JJ)	.	.	16An/JJ)	.	.	16an/JJ)	.	.	16an/JJ)	.	.	.	.	.	.	.	.	.	.	.	.	.
4.G/	4BB-\	16gg\LL	.	4BB-/	tu	.	4B-\	tu	.	4b-\	tu	.	4b-\	tu	.	4.G\	lu-	.	.	.	4.g/	lu-	.	4.gg\	lu-	.
.	.	16bb-\	.	.	.	.	.	.	.	.	.	.	.	.	.	.	.	.	.	.	.	.	.	.	.	.
.	.	16aa\	.	.	.	.	.	.	.	.	.	.	.	.	.	.	.	.	.	.	.	.	.	.	.	.
.	.	16gg\	.	.	.	.	.	.	.	.	.	.	.	.	.	.	.	.	.	.	.	.	.	.	.	.
.	16BB-\LL	16ffn\	.	16BB-/LL	wle-	.	16B-\LL	wle-	.	16b-\LL	wle-	.	16b-\LL	wle-	.	.	.	.	.	.	.	.	.	.	.	.
.	16C\JJ	16ee-X\JJ	.	16C/JJ	.	.	16c\JJ	.	.	16cc\JJ	.	.	16cc\JJ	.	.	.	.	.	.	.	.	.	.	.	.	.
4.D/	4.D\	16dd\LL	.	4.D\	-ci	.	4.d\	-ci	.	4.dd\	-ci	.	4.dd\	-ci	.	4.D\	-dziom	.	.	.	4.an/	-dziom	.	4.ff#X\	-dziom	.
.	.	16cc#X\	.	.	.	.	.	.	.	.	.	.	.	.	.	.	.	.	.	.	.	.	.	.	.	.
.	.	16dd\	.	.	.	.	.	.	.	.	.	.	.	.	.	.	.	.	.	.	.	.	.	.	.	.
.	.	16ee-X\	.	.	.	.	.	.	.	.	.	.	.	.	.	.	.	.	.	.	.	.	.	.	.	.
.	.	16ff#X\	.	.	.	.	.	.	.	.	.	.	.	.	.	.	.	.	.	.	.	.	.	.	.	.
.	.	16gg\JJ	.	.	.	.	.	.	.	.	.	.	.	.	.	.	.	.	.	.	.	.	.	.	.	.
8c/L	4.D\	16aa\LL	.	4D\	wna-	.	4d\	wna-	.	4dd\	wna-	.	4dd\	wna-	.	(4d\	złym	.	.	.	[>4a/	złym	.	(4ff#\	złym	.
.	.	16bb-\	.	.	.	.	.	.	.	.	.	.	.	.	.	.	.	.	.	.	.	.	.	.	.	.
8An/	.	16cccn\	.	.	.	.	.	.	.	.	.	.	.	.	.	.	.	.	.	.	.	.	.	.	.	.
.	.	16aa\	.	.	.	.	.	.	.	.	.	.	.	.	.	.	.	.	.	.	.	.	.	.	.	.
8F-X/J	.	16ddd\	.	8D\	-szą	.	8d\	-szą	.	8dd\	-szą	.	8dd\	-szą	.	8F#X\)	.	.	.	.	8a/]	.	.	8dd\)	.	.
.	.	16bb-\JJ	.	.	.	.	.	.	.	.	.	.	.	.	.	.	.	.	.	.	.	.	.	.	.	.
=60	=60	=60	=60	=60	=60	=60	=60	=60	=60	=60	=60	=60	=60	=60	=60	=60	=60	=60	=60	=60	=60	=60	=60	=60	=60	=60
!!linebreak:original
*xywh-211:233,2741,1966,482	*	*	*	*	*	*	*	*	*	*	*	*	*	*	*	*	*	*	*	*	*	*	*	*	*	*
*	*xywh-211:233,2741,1966,482	*	*	*	*	*	*	*	*	*	*	*	*	*	*	*	*	*	*	*	*	*	*	*	*	*
*	*	*xywh-211:233,2741,1966,482	*	*	*	*	*	*	*	*	*	*	*	*	*	*	*	*	*	*	*	*	*	*	*	*
*	*	*	*	*xywh-211:248,2579,1963,221	*	*	*	*	*	*	*	*	*	*	*	*	*	*	*	*	*	*	*	*	*	*
*	*	*	*	*	*	*	*xywh-211:284,2441,1900,191	*	*	*	*	*	*	*	*	*	*	*	*	*	*	*	*	*	*	*
*	*	*	*	*	*	*	*	*	*	*xywh-211:272,2301,1915,185	*	*	*	*	*	*	*	*	*	*	*	*	*	*	*	*
*	*	*	*	*	*	*	*	*	*	*	*	*	*xywh-211:281,2145,1885,209	*	*	*	*	*	*	*	*	*	*	*	*	*
*	*	*	*	*	*	*	*	*	*	*	*	*	*	*	*	*xywh-211:284,2019,1924,179	*	*	*	*	*	*	*	*	*	*
*	*	*	*	*	*	*	*	*	*	*	*	*	*	*	*	*	*	*	*	*	*xywh-211:254,1863,1924,194	*	*	*	*	*
*	*	*	*	*	*	*	*	*	*	*	*	*	*	*	*	*	*	*	*	*	*	*	*	*xywh-211:269,1701,1921,203	*	*
4GG\ 4G	2.ryy	16bb-\LL	.	4GG/	sieć	.	4G/	sieć	.	4g/	sieć	.	4g/	sieć	.	4.G\	męz-	.	1.ryy	.	4.b-\	męz-	.	4.dd\	męz-	.
.	.	16aan\	.	.	.	.	.	.	.	.	.	.	.	.	.	.	.	.	.	.	.	.	.	.	.	.
.	.	16gg\	.	.	.	.	.	.	.	.	.	.	.	.	.	.	.	.	.	.	.	.	.	.	.	.
.	.	16ffn\	.	.	.	.	.	.	.	.	.	.	.	.	.	.	.	.	.	.	.	.	.	.	.	.
8r	.	16ee-X\	.	8r	.	.	8r	.	.	8r	.	.	8r	.	.	.	.	.	.	.	.	.	.	.	.	.
.	.	16dd\JJ	.	.	.	.	.	.	.	.	.	.	.	.	.	.	.	.	.	.	.	.	.	.	.	.
8C\L 8c	.	8g\L 8an 8ee-	.	8C/	on	.	8G/	on	.	8an/	on	.	8ee-\	on	.	4c\	-two	.	.	.	4g/	-two	.	4ee-\	-two	.
8C\J 8c	.	8g\J 8a 8ee-	.	8C/	tu	.	8G/	tu	.	8a/	tu	.	8ee-\	tu	.	.	.	.	.	.	.	.	.	.	.	.
8r	.	(16ee-\LL	.	8r	.	.	8r	.	.	8r	.	.	8r	.	.	8r	.	.	.	.	8r	.	.	8r	.	.
.	.	16dd\JJ	.	.	.	.	.	.	.	.	.	.	.	.	.	.	.	.	.	.	.	.	.	.	.	.
8G/L	4.C\	16ee-\LL	.	4r	.	.	4r	.	.	4r	.	.	4r	.	.	4.C/	nam	.	.	.	8g/L	nam	.	4.ee-\	nam	.
.	.	16dd\	.	.	.	.	.	.	.	.	.	.	.	.	.	.	.	.	.	.	.	.	.	.	.	.
8An/	.	16cc\	.	.	.	.	.	.	.	.	.	.	.	.	.	.	.	.	.	.	8a-/	.	.	.	.	.
.	.	16b-\	.	.	.	.	.	.	.	.	.	.	.	.	.	.	.	.	.	.	.	.	.	.	.	.
8G/J	.	16a\	.	8r	.	.	8r	.	.	8r	.	.	8r	.	.	.	.	.	.	.	8g/J	.	.	.	.	.
.	.	16g\JJ)	.	.	.	.	.	.	.	.	.	.	.	.	.	.	.	.	.	.	.	.	.	.	.	.
8F#X/L	4D\	16dd\LL	.	8D\	wle-	.	8F#X/	wle-	.	8a/	wle-	.	8dd\	wle-	.	4D\	w cier-	.	.	.	4f#X/	w cier-	.	4dd\	w cier-	.
.	.	16cc#X\	.	.	.	.	.	.	.	.	.	.	.	.	.	.	.	.	.	.	.	.	.	.	.	.
8D/J	.	16dd\	.	8D\	-ci	.	8F#/	-ci	.	8a/	-ci	.	8dd\	-ci	.	.	.	.	.	.	.	.	.	.	.	.
.	.	16cc#\	.	.	.	.	.	.	.	.	.	.	.	.	.	.	.	.	.	.	.	.	.	.	.	.
8r	8r	16dd\	.	8r	.	.	8r	.	.	8r	.	.	8r	.	.	8r	.	.	.	.	8r	.	.	8r	.	.
.	.	16dd#X\JJ	.	.	.	.	.	.	.	.	.	.	.	.	.	.	.	.	.	.	.	.	.	.	.	.
=61	=61	=61	=61	=61	=61	=61	=61	=61	=61	=61	=61	=61	=61	=61	=61	=61	=61	=61	=61	=61	=61	=61	=61	=61	=61	=61
8C#X'\L 8c#X	4ryy	16een\LL	.	8C#X/	wna-	.	8G/	wna-	.	8b-\	wna-	.	8een\	wna-	.	4C#X/	-pie-	.	1.ryy	.	4g/	-pie-	.	4een\	-pie-	.
.	.	16b-\	.	.	.	.	.	.	.	.	.	.	.	.	.	.	.	.	.	.	.	.	.	.	.	.
8C#'\J 8c#	.	16g\	.	8C#/	-szą	.	8G/	-szą	.	8b-\	-szą	.	8ee\	-szą	.	.	.	.	.	.	.	.	.	.	.	.
.	.	16ee\	.	.	.	.	.	.	.	.	.	.	.	.	.	.	.	.	.	.	.	.	.	.	.	.
8r	8r	16b-\	.	8r	.	.	8r	.	.	8r	.	.	8r	.	.	8c\	-niu	.	.	.	8b-\	-niu	.	8ee\	-niu	.
.	.	16g\JJ	.	.	.	.	.	.	.	.	.	.	.	.	.	.	.	.	.	.	.	.	.	.	.	.
8D'\L 8G 8B- 8d	4ryy	16dd\LL	.	4D\	sieć	.	4G/	sieć	.	4b-\	sieć	.	4dd\	wieć	.	4.d\	daj	.	.	.	4.b-\	daj	.	4.dd\	daj	.
.	.	16b-\	.	.	.	.	.	.	.	.	.	.	.	.	.	.	.	.	.	.	.	.	.	.	.	.
8D'\J 8G 8B- 8d	.	16g\	.	.	.	.	.	.	.	.	.	.	.	.	.	.	.	.	.	.	.	.	.	.	.	.
.	.	16dd\	.	.	.	.	.	.	.	.	.	.	.	.	.	.	.	.	.	.	.	.	.	.	.	.
8r	8r	16b-\	.	8r	.	.	8r	.	.	8r	.	.	8r	.	.	.	.	.	.	.	.	.	.	.	.	.
.	.	16g\JJ	.	.	.	.	.	.	.	.	.	.	.	.	.	.	.	.	.	.	.	.	.	.	.	.
8D/L	4.D\	16dd\LL	.	4D\	wle-	.	(8D/L	wle-	.	8dd\	wle-	.	8dd\L	wle-	.	2.d\	męz-	.	.	.	2.an/	męz-	.	2.ff#X\	męz-	.
.	.	16cc#X\	.	.	.	.	.	.	.	.	.	.	.	.	.	.	.	.	.	.	.	.	.	.	.	.
!	!	!	!	!	!	!	!	!	!	!	!	!	!LO:SIC:v:s=8an\J	!	!	!	!	!	!	!	!	!	!	!	!	!
8F#X/ 8An	.	16dd\	.	.	.	.	8F#X/J)	.	.	8an/	ci	.	8a-\J	.	.	.	.	.	.	.	.	.	.	.	.	.
.	.	16ee-X\	.	.	.	.	.	.	.	.	.	.	.	.	.	.	.	.	.	.	.	.	.	.	.	.
8G/J 8B-	.	16ff#X\	.	8D\	-ci	.	8G/	-ci	.	8g/	wna-	.	8b-\	-ci	.	.	.	.	.	.	.	.	.	.	.	.
.	.	16gg\JJ	.	.	.	.	.	.	.	.	.	.	.	.	.	.	.	.	.	.	.	.	.	.	.	.
4A/ 4c#	4D\	16aan\LL	.	4D\	wna-	.	4F#/	wna-	.	4.a/	-szą	.	4cc\	wna-	.	.	.	.	.	.	.	.	.	.	.	.
.	.	16bb-\	.	.	.	.	.	.	.	.	.	.	.	.	.	.	.	.	.	.	.	.	.	.	.	.
.	.	16cccn\	.	.	.	.	.	.	.	.	.	.	.	.	.	.	.	.	.	.	.	.	.	.	.	.
.	.	16aa\	.	.	.	.	.	.	.	.	.	.	.	.	.	.	.	.	.	.	.	.	.	.	.	.
8A/	8D\	16ddd\	.	8D\	-szą	.	8D/	-szą	.	.	.	.	8dd\	-szą	.	.	.	.	.	.	.	.	.	.	.	.
.	.	16ccc\JJ	.	.	.	.	.	.	.	.	.	.	.	.	.	.	.	.	.	.	.	.	.	.	.	.
*v	*v	*	*	*	*	*	*	*	*	*	*	*	*	*	*	*	*	*	*	*	*	*	*	*	*	*
=62	=62	=62	=62	=62	=62	=62	=62	=62	=62	=62	=62	=62	=62	=62	=62	=62	=62	=62	=62	=62	=62	=62	=62	=62	=62
!!pagebreak:original
*xywh-#222:406,1218,1924,476	*	*	*	*	*	*	*	*	*	*	*	*	*	*	*	*	*	*	*	*	*	*	*	*	*
*	*xywh-#222:406,1218,1924,476	*	*	*	*	*	*	*	*	*	*	*	*	*	*	*	*	*	*	*	*	*	*	*	*
*	*	*	*xywh-#222:424,1065,1945,209	*	*	*	*	*	*	*	*	*	*	*	*	*	*	*	*	*	*	*	*	*	*
*	*	*	*	*	*	*xywh-#222:418,918,1957,203	*	*	*	*	*	*	*	*	*	*	*	*	*	*	*	*	*	*	*
*	*	*	*	*	*	*	*	*	*xywh-#222:445,790,1882,185	*	*	*	*	*	*	*	*	*	*	*	*	*	*	*	*
*	*	*	*	*	*	*	*	*	*	*	*	*xywh-#222:472,655,1837,197	*	*	*	*	*	*	*	*	*	*	*	*	*
*	*	*	*	*	*	*	*	*	*	*	*	*	*	*	*xywh-#222:445,511,1900,209	*	*	*	*	*	*	*	*	*	*
*	*	*	*	*	*	*	*	*	*	*	*	*	*	*	*	*	*	*	*	*xywh-#222:460,361,1894,206	*	*	*	*	*
*	*	*	*	*	*	*	*	*	*	*	*	*	*	*	*	*	*	*	*	*	*	*	*xywh-#222:433,166,1888,257	*	*
4GG\ 4G	16bb-\LL	.	4GG/	sieć	.	4G/	sieć	.	4g/	sieć	.	4b-\	sieć	.	4G\	-two	.	1.ryy	.	4b-\	-two	.	4gg\	-two	.
.	16aan\	.	.	.	.	.	.	.	.	.	.	.	.	.	.	.	.	.	.	.	.	.	.	.	.
.	16gg\	.	.	.	.	.	.	.	.	.	.	.	.	.	.	.	.	.	.	.	.	.	.	.	.
.	16ff\	.	.	.	.	.	.	.	.	.	.	.	.	.	.	.	.	.	.	.	.	.	.	.	.
8r	16ee-\	.	8r	.	.	8r	.	.	8r	.	.	8r	.	.	8r	.	.	.	.	8r	.	.	8r	.	.
.	16dd\JJ	.	.	.	.	.	.	.	.	.	.	.	.	.	.	.	.	.	.	.	.	.	.	.	.
8C'\L 8c	8g\L 8an 8ee-	.	4r	.	.	4r	.	.	4r	.	.	4r	.	.	4r	.	.	.	.	4r	.	.	4r	.	.
8C'\J 8c	8g\J 8a 8ee-	.	.	.	.	.	.	.	.	.	.	.	.	.	.	.	.	.	.	.	.	.	.	.	.
8r	(16ee-\LL	.	8r	.	.	8r	.	.	8r	.	.	8r	.	.	8r	.	.	.	.	8r	.	.	8r	.	.
.	16dd\JJ	.	.	.	.	.	.	.	.	.	.	.	.	.	.	.	.	.	.	.	.	.	.	.	.
4.C^\ 4.E-X 4.A-X 4.c	16ee-\LL	.	8C/	wle-	.	4r	.	.	4r	.	.	8cc\	wle-	.	4c\	nam	.	.	.	4a-X/	nam	.	4ee-X\	nam	.
.	16dd\	.	.	.	.	.	.	.	.	.	.	.	.	.	.	.	.	.	.	.	.	.	.	.	.
.	16ff\	.	8C/	-ci	.	.	.	.	.	.	.	8cc\	-ci	.	.	.	.	.	.	.	.	.	.	.	.
.	16ee-\	.	.	.	.	.	.	.	.	.	.	.	.	.	.	.	.	.	.	.	.	.	.	.	.
.	16cc\	.	8r	.	.	8r	.	.	8r	.	.	8r	.	.	8ryy	.	.	.	.	8ryy	.	.	8ryy	.	.
.	16a-X\JJ)	.	.	.	.	.	.	.	.	.	.	.	.	.	.	.	.	.	.	.	.	.	.	.	.
8C#X'\L 8G 8B- 8c#X	(16g\LL	.	8C#X/	wna-	.	8G/	wle-	.	8b-\	wle-	.	8gg\	wna-	.	4c#X\	daj!	.	.	.	4g/	daj!	.	4een\	daj!	.
.	16b-\	.	.	.	.	.	.	.	.	.	.	.	.	.	.	.	.	.	.	.	.	.	.	.	.
8C#'\J 8G 8B- 8c#	16een\	.	8C#/	-szą	.	8G/	-ci	.	8b-\	-ci	.	8gg\	-szą	.	.	.	.	.	.	.	.	.	.	.	.
.	16gg\	.	.	.	.	.	.	.	.	.	.	.	.	.	.	.	.	.	.	.	.	.	.	.	.
8r	16ff#X\	.	8r	.	.	8r	.	.	8r	.	.	8r	.	.	8r	.	.	.	.	8r	.	.	8r	.	.
.	16gg\JJ)	.	.	.	.	.	.	.	.	.	.	.	.	.	.	.	.	.	.	.	.	.	.	.	.
=63||	=63||	=63||	=63||	=63||	=63||	=63||	=63||	=63||	=63||	=63||	=63||	=63||	=63||	=63||	=63||	=63||	=63||	=63||	=63||	=63||	=63||	=63||	=63||	=63||	=63||
*	*	*	*kcancel	*	*	*kcancel	*	*	*kcancel	*	*	*kcancel	*	*	*kcancel	*	*	*kcancel	*	*kcancel	*	*	*kcancel	*	*
*k[f#]	*k[f#]	*	*k[f#]	*	*	*k[f#]	*	*	*k[f#]	*	*	*k[f#]	*	*	*k[f#]	*	*	*k[f#]	*	*k[f#]	*	*	*k[f#]	*	*
!	!	!	!	!	!	!LO:N:vis=4	!	!	!LO:SIC:v:s=8b-\	!	!	!	!	!	!	!	!	!	!	!	!	!	!	!	!
8D'\L 8G 8B-X 8d	16gg\LL	.	8D\	wna-	.	8G/	wna-	.	8b\	wna-	.	8dd\	wna-	.	4r	.	.	1.ryy	.	4r	.	.	4r	.	.
.	(16ddd\	.	.	.	.	.	.	.	.	.	.	.	.	.	.	.	.	.	.	.	.	.	.	.	.
!	!	!	!	!	!	!LO:N:vis=4	!	!	!LO:SIC:v:s=8b-\	!	!	!	!	!	!	!	!	!	!	!	!	!	!	!	!
8D'\J 8G 8B- 8d	16ccc\	.	8D\	-szą	.	8G/	-szą	.	8b\	-szą	.	8dd\	-szą	.	.	.	.	.	.	.	.	.	.	.	.
.	16bb-X\	.	.	.	.	.	.	.	.	.	.	.	.	.	.	.	.	.	.	.	.	.	.	.	.
8r	16aa\	.	8r	.	.	8r	.	.	8r	.	.	8r	.	.	8r	.	.	.	.	8r	.	.	8r	.	.
.	16gg\JJ	.	.	.	.	.	.	.	.	.	.	.	.	.	.	.	.	.	.	.	.	.	.	.	.
!	!	!	!	!	!	!	!	!	!	!	!	!	!	!	!	!	!	!	!	!LO:SIC:v:s=4b-\	!	!	!	!	!
8D'\L 8G 8B- 8d	16bb-\LL	.	4r	.	.	4r	.	.	4r	.	.	4r	.	.	4d\	Mat-	.	.	.	4b\	Mat-	.	4dd\	Mat-	.
.	16aa\	.	.	.	.	.	.	.	.	.	.	.	.	.	.	.	.	.	.	.	.	.	.	.	.
8D'\J 8G 8B- 8d	16gg\	.	.	.	.	.	.	.	.	.	.	.	.	.	.	.	.	.	.	.	.	.	.	.	.
.	16ffn\	.	.	.	.	.	.	.	.	.	.	.	.	.	.	.	.	.	.	.	.	.	.	.	.
!	!	!	!	!	!	!	!	!	!	!	!	!	!	!	!	!	!	!	!	!LO:SIC:v:s=8b-\	!	!	!	!	!
8r	16ee-X\)	.	8r	.	.	8r	.	.	8r	.	.	8r	.	.	8d\	-ko	.	.	.	8b\	-ko	.	8gg\	-ko	.
.	16dd\JJ	.	.	.	.	.	.	.	.	.	.	.	.	.	.	.	.	.	.	.	.	.	.	.	.
8D'\L 8d	(16an\LL	.	4D\	sieć	.	4r	.	.	4an/	sieć!	.	4dd\	sieć!	.	4d\	na-	.	.	.	4an/	na-	.	4gg\	na-	.
.	16dd\	.	.	.	.	.	.	.	.	.	.	.	.	.	.	.	.	.	.	.	.	.	.	.	.
8D'\J 8d	16gg\	.	.	.	.	.	.	.	.	.	.	.	.	.	.	.	.	.	.	.	.	.	.	.	.
.	16dd\	.	.	.	.	.	.	.	.	.	.	.	.	.	.	.	.	.	.	.	.	.	.	.	.
8r	16a\	.	8r	.	.	8r	.	.	8r	.	.	8r	.	.	8r	.	.	.	.	8r	.	.	8r	.	.
.	16dd\JJ)	.	.	.	.	.	.	.	.	.	.	.	.	.	.	.	.	.	.	.	.	.	.	.	.
8D'\L 8d	(16a\LL	.	4r	.	.	4r	.	.	4r	.	.	4r	.	.	4d\	-sza	.	.	.	4a/	-sza	.	4ff#X\	-sza	.
.	16dd\	.	.	.	.	.	.	.	.	.	.	.	.	.	.	.	.	.	.	.	.	.	.	.	.
8D'\J 8d	16ff#X\	.	.	.	.	.	.	.	.	.	.	.	.	.	.	.	.	.	.	.	.	.	.	.	.
.	16dd\	.	.	.	.	.	.	.	.	.	.	.	.	.	.	.	.	.	.	.	.	.	.	.	.
8r	16a\	.	8r	.	.	8r	.	.	8r	.	.	8r	.	.	8r	.	.	.	.	8r	.	.	8r	.	.
.	16dd\JJ)	.	.	.	.	.	.	.	.	.	.	.	.	.	.	.	.	.	.	.	.	.	.	.	.
!!!key: G
=64	=64	=64	=64	=64	=64	=64	=64	=64	=64	=64	=64	=64	=64	=64	=64	=64	=64	=64	=64	=64	=64	=64	=64	=64	=64
!!linebreak:original
*^	*^	*	*	*	*	*	*	*	*	*	*	*	*	*	*	*	*	*	*	*	*	*	*	*	*
*xywh-#222:386,2711,1938,467	*	*	*	*	*	*	*	*	*	*	*	*	*	*	*	*	*	*	*	*	*	*	*	*	*	*	*
*	*xywh-#222:386,2711,1938,467	*	*	*	*	*	*	*	*	*	*	*	*	*	*	*	*	*	*	*	*	*	*	*	*	*	*
*	*	*xywh-#222:386,2711,1938,467	*	*	*	*	*	*	*	*	*	*	*	*	*	*	*	*	*	*	*	*	*	*	*	*	*
*	*	*	*xywh-#222:386,2711,1938,467	*	*	*	*	*	*	*	*	*	*	*	*	*	*	*	*	*	*	*	*	*	*	*	*
*	*	*	*	*	*xywh-#222:434,2561,1920,197	*	*	*	*	*	*	*	*	*	*	*	*	*	*	*	*	*	*	*	*	*	*
*	*	*	*	*	*	*	*	*xywh-#222:451,2431,1875,174	*	*	*	*	*	*	*	*	*	*	*	*	*	*	*	*	*	*	*
*	*	*	*	*	*	*	*	*	*	*	*xywh-#222:454,2279,1870,207	*	*	*	*	*	*	*	*	*	*	*	*	*	*	*	*
*	*	*	*	*	*	*	*	*	*	*	*	*	*	*xywh-#222:459,2139,1868,177	*	*	*	*	*	*	*	*	*	*	*	*	*
*	*	*	*	*	*	*	*	*	*	*	*	*	*	*	*	*	*xywh-#222:434,1986,1885,187	*	*	*	*	*	*	*	*	*	*
*	*	*	*	*	*	*	*	*	*	*	*	*	*	*	*	*	*	*	*	*	*	*xywh-#222:426,1829,1928,217	*	*	*	*	*
*	*	*	*	*	*	*	*	*	*	*	*	*	*	*	*	*	*	*	*	*	*	*	*	*	*xywh-#222:439,1674,1910,212	*	*
4G\	2.ryy	4.g\ 4.bn 4.dd 4.gg	4.ryy	.	1.r	.	.	4G/	słoń-	.	4r	.	.	4g/	słoń-	.	2.G\	wzro-	.	1.ryy	.	2.bn\	wzro-	.	2.gg\	wzro-	.
8G\ 8Bn 8d	.	.	.	.	.	.	.	8Bn\	-ce	.	8r	.	.	8dd\	-ce	.	.	.	.	.	.	.	.	.	.	.	.
8G\L 8B 8d	.	4.g\ 4.b 4.dd 4.gg	4.ryy	.	.	.	.	4B\	ty	.	4r	.	.	4dd\	ty	.	.	.	.	.	.	.	.	.	.	.	.
8G\ 8B 8d	.	.	.	.	.	.	.	.	.	.	.	.	.	.	.	.	.	.	.	.	.	.	.	.	.	.	.
8G\J 8B 8d	.	.	.	.	.	.	.	8B\	za-	.	8r	.	.	8dd\	za-	.	.	.	.	.	.	.	.	.	.	.	.
4g/	4.G\	4.b\ 4.gg	4.ryy	.	.	.	.	(4G/	-gaś-	.	4r	.	.	4gg\	-gaś-	.	4.G\	-kiem	.	.	.	4.b\	-kiem	.	4.gg\	-kiem	.
8d/	.	.	.	.	.	.	.	8B/)	.	.	8r	.	.	8dd\	-nij	.	.	.	.	.	.	.	.	.	.	.	.
8c^/L	4.D\	4ff#X/	4a\	.	.	.	.	4.D/	-nij	.	8an/L	słoń-	.	8cc\	za-	.	4D\	wzro-	.	.	.	4an\	wzro-	.	4ff#\	wzro-	.
16c^/L	.	.	.	.	.	.	.	.	.	.	16a/L	.	.	(16cc\LL	-gaś-	.	.	.	.	.	.	.	.	.	.	.	.
16B/J	.	.	.	.	.	.	.	.	.	.	16g/JJ	.	.	16bn\JJ)	.	.	.	.	.	.	.	.	.	.	.	.	.
8A^/J	.	8ff#/	8cc\	.	.	.	.	.	.	.	8d/	-ce	.	8an/	-nij	.	8D\	-kiem	.	.	.	8cc\	-kiem	.	8ff#\	-kiem	.
=65	=65	=65	=65	=65	=65	=65	=65	=65	=65	=65	=65	=65	=65	=65	=65	=65	=65	=65	=65	=65	=65	=65	=65	=65	=65	=65	=65
*	*	*	*^	*	*	*	*	*	*	*	*	*	*	*	*	*	*	*	*	*	*	*	*	*	*	*	*
4.G\	4ryy	(4.gg/	4bn\	2.ryy	p	4r	.	.	4G/	ty	.	4g/	ty	.	4.g/	wprzód	.	4.G\	twym	.	1.ryy	.	4.bn\	twym	.	4.gg\	twym	.
.	8ryy	.	8dd\	.	.	8r	.	.	8G/	za-	.	8dd\	za-	.	.	.	.	.	.	.	.	.	.	.	.	.	.	.
8A/L	4D\	4.ff#X/	8cc\L	.	.	4r	.	.	4.D/	-gaś-	.	8cc\L	-gaś-	.	4r	.	.	4.D\	oś-	.	.	.	4an/	oś-	.	4.ff#X\	oś-	.
16A/L	.	.	16cc\L	.	.	.	.	.	.	.	.	16cc\L	.	.	.	.	.	.	.	.	.	.	.	.	.	.	.	.
16B/J	.	.	16b\J	.	.	.	.	.	.	.	.	16bn\JJ	.	.	.	.	.	.	.	.	.	.	.	.	.	.	.	.
8c/J	8D\	.	8a\J	.	.	8r	.	.	.	.	.	8an/	-nij	.	8r	.	.	.	.	.	.	.	8cc\	-wieć	.	.	.	.
4B/	4.G\	4.gg/	4b\	4.g\	.	4GG/	słoń-	.	4G/	-nij	.	4g/	wprzód	.	4g/	a	.	4.G\	-wieć	.	.	.	(4b\	oś-	.	4.gg\	-wieć	.
8e/	.	.	8cc\	.	.	8En\	-ce	.	8r	.	.	8r	.	.	8g/	zlo-	.	.	.	.	.	.	8g/)	.	.	.	.	.
8d/L	4.D\	4.ff#X/	4a\	4.ryy	.	8D/L	ty	.	4r	.	.	4r	.	.	4.f#X/	-czyń-	.	4D\	oś-	.	.	.	4.a/	-wieć	.	4ff#\	oś-	.
16c/L	.	.	.	.	.	16C/L	.	.	.	.	.	.	.	.	.	.	.	.	.	.	.	.	.	.	.	.	.	.
16B/J	.	.	.	.	.	16BBn/JJ	.	.	.	.	.	.	.	.	.	.	.	.	.	.	.	.	.	.	.	.	.	.
8A/J	.	.	8cc\)	.	.	8AAn/	za-	.	8r	.	.	8r	.	.	.	.	.	8D\	-wieć	.	.	.	.	.	.	8dd\	-wieć	.
=66	=66	=66	=66	=66	=66	=66	=66	=66	=66	=66	=66	=66	=66	=66	=66	=66	=66	=66	=66	=66	=66	=66	=66	=66	=66	=66	=66	=66
!!pagebreak:original
*xywh-#223:137,1253,1987,509	*	*	*	*	*	*	*	*	*	*	*	*	*	*	*	*	*	*	*	*	*	*	*	*	*	*	*	*
*	*xywh-#223:137,1253,1987,509	*	*	*	*	*	*	*	*	*	*	*	*	*	*	*	*	*	*	*	*	*	*	*	*	*	*	*
*	*	*xywh-#223:137,1253,1987,509	*	*	*	*	*	*	*	*	*	*	*	*	*	*	*	*	*	*	*	*	*	*	*	*	*	*
*	*	*	*xywh-#223:137,1253,1987,509	*	*	*	*	*	*	*	*	*	*	*	*	*	*	*	*	*	*	*	*	*	*	*	*	*
*	*	*	*	*	*	*xywh-#223:143,1086,1957,245	*	*	*	*	*	*	*	*	*	*	*	*	*	*	*	*	*	*	*	*	*	*
*	*	*	*	*	*	*	*	*	*xywh-#223:146,945,1951,206	*	*	*	*	*	*	*	*	*	*	*	*	*	*	*	*	*	*	*
*	*	*	*	*	*	*	*	*	*	*	*	*xywh-#223:152,804,1960,203	*	*	*	*	*	*	*	*	*	*	*	*	*	*	*	*
*	*	*	*	*	*	*	*	*	*	*	*	*	*	*	*xywh-#223:161,663,1924,209	*	*	*	*	*	*	*	*	*	*	*	*	*
*	*	*	*	*	*	*	*	*	*	*	*	*	*	*	*	*	*	*xywh-#223:179,528,1891,206	*	*	*	*	*	*	*	*	*	*
*	*	*	*	*	*	*	*	*	*	*	*	*	*	*	*	*	*	*	*	*	*xywh-#223:179,375,1903,194	*	*	*	*	*	*	*
*	*	*	*	*	*	*	*	*	*	*	*	*	*	*	*	*	*	*	*	*	*	*	*	*	*	*xywh-#223:158,151,1981,272'	*	*
!	!	!	!	!	!	!	!	!	!	!	!	!LO:N:vis=0	!	!	!	!	!	!	!	!	!	!	!	!	!	!	!	!
4G/	2.GG\	4.b\ 4.gg	4.ryy	4.ryy	.	2.GG/	-gaś-	.	4G/	a	.	1.r	.	.	4.g/	-com	.	4.G\	ten	.	1.ryy	.	4.bn\	ten	.	4.gg\	ten	.
8G/	.	.	.	.	.	.	.	.	8G/	zło-	.	.	.	.	.	.	.	.	.	.	.	.	.	.	.	.	.	.
8Fn^/L	.	4.gg/	4dd\	4.b\	<	.	.	.	8Fn/L	-czyń-	.	.	.	.	4r	.	.	4r	.	.	.	.	4r	.	.	4r	.	.
16F^/L	.	.	.	.	.	.	.	.	16F/L	.	.	.	.	.	.	.	.	.	.	.	.	.	.	.	.	.	.	.
16E/J	.	.	.	.	.	.	.	.	16En/JJ	.	.	.	.	.	.	.	.	.	.	.	.	.	.	.	.	.	.	.
8D^/J	.	.	8ffn\	.	[	.	.	.	8D/	-com	.	.	.	.	8r	.	.	8r	.	.	.	.	8r	.	.	8r	.	.
!	!	!	!	!	!	!	!	!	!	!	!	!	!	!	!	!	!LO:DY:rj:b	!	!	!LO:DY:rj:b	!	!	!	!	!LO:DY:rj	!	!	!LO:DY:rj:b
4r	4.C\	4.cc\ 4.ee	2.ryy	2.ryy	.	4.C/	-nij	.	4.C/	tym	.	.	.	.	4cc\	zło-	p	4.C\	po-	p	.	.	4.g/	po-	p	4.een\	po-	p
!	!	!	!	!	!	!	!	!	!	!	!	!	!	!	!	!	!	!	!	!LO:DY:rj	!	!	!	!	!	!	!	!
.	.	.	.	.	.	.	.	.	.	.	.	.	.	.	.	.	.	.	.	p	.	.	.	.	.	.	.	.
8e/	.	.	.	.	.	.	.	.	.	.	.	.	.	.	8een\	-czyń-	.	.	.	.	.	.	.	.	.	.	.	.
8d/L	4.D\	4cc\ 4ff#X	.	.	>	4.D\	w przód	.	4r	.	.	.	.	.	8dd\	-com	.	4D\	-gań-	.	.	.	4cc\	-gańs-	.	4ff#X\	-gańs-	.
16c/L	.	.	.	.	.	.	.	.	.	.	.	.	.	.	(16cc\LL	tym	.	.	.	.	.	.	.	.	.	.	.	.
16B/J	.	.	.	.	.	.	.	.	.	.	.	.	.	.	16bn\JJ)	.	.	.	.	.	.	.	.	.	.	.	.	.
8A/J	.	8cc\ 8ff#	.	.	]	.	.	.	8r	.	.	.	.	.	8an\	nie	.	8D\	-skiu	.	.	.	8cc\	-ki	.	8ff#\	-ki	.
=67	=67	=67	=67	=67	=67	=67	=67	=67	=67	=67	=67	=67	=67	=67	=67	=67	=67	=67	=67	=67	=67	=67	=67	=67	=67	=67	=67	=67
!	!	!	!	!	!	!	!	!	!	!	!LO:DY:rj:b	!	!	!	!	!	!	!	!	!	!	!	!	!	!	!	!	!
4G/	2.GG\	4.b\ 4.gg	4.ryy	4.ryy	<	(2.GG/	a	.	4G/	a	p	4r	.	.	4.g/	świeć	.	4.GG/	kraj	.	1.ryy	.	4.bn\	kraj	.	4.gg\	kraj	.
8G/	.	.	.	.	[	.	.	.	8G/	zło-	.	8r	.	.	.	.	.	.	.	.	.	.	.	.	.	.	.	.
8Fn^/L	.	4.gg/	4dd\	4.b\	.	.	.	.	8Fn/	-czyń-	.	4r	.	.	4r	.	.	4r	.	.	.	.	4r	.	.	4r	.	.
16F^/L	.	.	.	.	.	.	.	.	16F/LL	-com	.	.	.	.	.	.	.	.	.	.	.	.	.	.	.	.	.	.
16E/J	.	.	.	.	.	.	.	.	16En/J	.	.	.	.	.	.	.	.	.	.	.	.	.	.	.	.	.	.	.
8D^/J	.	.	8ffn\	.	.	.	.	.	8D/J	.	.	8r	.	.	8r	.	.	8r	.	.	.	.	8r	.	.	8r	.	.
4C/	4.C\	4.g\ 4.cc 4.ee	2.ryy	2.ryy	.	4.C/)	.	.	4.C/	nie	.	4r	.	.	4cc\	słoń-	.	(4.C/	na-	.	.	.	(4.g/	na-	.	(4.een\	na-	.
8E/	.	.	.	.	.	.	.	.	.	.	.	8r	.	.	8een\	-ce	.	.	.	.	.	.	.	.	.	.	.	.
8D/L	4.DD\	4a\ 4cc 4ff#X	.	.	.	4.D/	zło-	.	4.D/	świeć	.	4dd\	słoń-	.	4dd\	ty	.	4D\)	.	.	.	.	4cc\)	.	.	4ff#X\)	.	.
16C/L	.	.	.	.	.	.	.	.	.	.	.	.	.	.	.	.	.	.	.	.	.	.	.	.	.	.	.	.
16BB/J	.	.	.	.	.	.	.	.	.	.	.	.	.	.	.	.	.	.	.	.	.	.	.	.	.	.	.	.
8AA/J	.	8cc\ 8ff#	.	.	.	.	.	.	.	.	.	8cc\	-ce	.	8dd\	za-	.	8D\	-szą	.	.	.	8cc\	-szą	.	8ff#\	-szą	.
*v	*v	*	*	*	*	*	*	*	*	*	*	*	*	*	*	*	*	*	*	*	*	*	*	*	*	*	*	*
*	*v	*v	*v	*	*	*	*	*	*	*	*	*	*	*	*	*	*	*	*	*	*	*	*	*	*	*	*
=68	=68	=68	=68	=68	=68	=68	=68	=68	=68	=68	=68	=68	=68	=68	=68	=68	=68	=68	=68	=68	=68	=68	=68	=68	=68
!!linebreak:original
*xywh-#223:131,2773,1960,455	*	*	*	*	*	*	*	*	*	*	*	*	*	*	*	*	*	*	*	*	*	*	*	*	*
*	*xywh-#223:131,2773,1960,455	*	*	*	*	*	*	*	*	*	*	*	*	*	*	*	*	*	*	*	*	*	*	*	*
*	*	*	*xywh-#223:140,2647,1927,191	*	*	*	*	*	*	*	*	*	*	*	*	*	*	*	*	*	*	*	*	*	*
*	*	*	*	*	*	*xywh-#223:152,2476,1888,197	*	*	*	*	*	*	*	*	*	*	*	*	*	*	*	*	*	*	*
*	*	*	*	*	*	*	*	*	*xywh-#223:182,2342,1858,182	*	*	*	*	*	*	*	*	*	*	*	*	*	*	*	*
*	*	*	*	*	*	*	*	*	*	*	*	*xywh-#223:179,2189,1873,215	*	*	*	*	*	*	*	*	*	*	*	*	*
*	*	*	*	*	*	*	*	*	*	*	*	*	*	*	*xywh-#223:194,2063,1867,197	*	*	*	*	*	*	*	*	*	*
*	*	*	*	*	*	*	*	*	*	*	*	*	*	*	*	*	*	*	*	*xywh-#223:170,1904,1885,203	*	*	*	*	*
*	*	*	*	*	*	*	*	*	*	*	*	*	*	*	*	*	*	*	*	*	*	*	*xywh-#223:185,1727,1867,239	*	*
4GG/	2.b\ 2.gg	pp	4.GG/	-czyń-	.	4.G/	słoń-	.	4.bn\	słoń-	.	2.dd\	-gaś-	.	4.GG/	krwią	.	1.ryy	.	4.bn\	krwią	.	4.gg\	krwią	.
8G\ 8B 8d	.	.	.	.	.	.	.	.	.	.	.	.	.	.	.	.	.	.	.	.	.	.	.	.	.
8G\L 8B 8d	.	.	4GG/	-com	.	4.G/	-ce	.	4.b\	-ce	.	.	.	.	4r	.	.	.	.	4r	.	.	4r	.	.
8G\ 8B 8d	.	.	.	.	.	.	.	.	.	.	.	.	.	.	.	.	.	.	.	.	.	.	.	.	.
8G\J 8B 8d	.	.	8GG/	nie	.	.	.	.	.	.	.	.	.	.	8r	.	.	.	.	8r	.	.	8r	.	.
4G\ 4B 4d	4.b\ 4.gg	.	[2.GG/	świeć	.	4G/	ty	.	4b\	ty	.	4dd\	-nij	.	4r	.	.	.	.	4r	.	.	4r	.	.
8G\ 8B 8d	.	.	.	.	.	8G/	za-	.	8b\	za-	.	8dd\	ty	.	8r	.	.	.	.	8r	.	.	8r	.	.
8G\L 8B 8d	(4dd\ 4ff#	<	.	.	.	4G/	-gaś-	.	(8b/L	-gaś-	.	8dd\	za-	.	4.G\	wy-	.	.	.	(4an\	wy-	.	(4ff#X\	wy-	.
8G\ 8B 8d	.	.	.	.	.	.	.	.	8g/J)	.	.	8dd\	-gaś-	.	.	.	.	.	.	.	.	.	.	.	.
8G\J 8B 8d	8dd\ 8gg	[[	.	.	.	8G/	-nij	.	8g/	-nij	.	8dd\	-nij	.	.	.	.	.	.	8b\)	.	.	8gg\)	.	.
=69	=69	=69	=69	=69	=69	=69	=69	=69	=69	=69	=69	=69	=69	=69	=69	=69	=69	=69	=69	=69	=69	=69	=69	=69	=69
*^	*	*	*	*	*	*	*	*	*	*	*	*	*	*	*	*	*	*	*	*	*	*	*	*	*
*xywh-#223:131,2773,1960,455	*	*	*	*	*	*	*	*	*	*	*	*	*	*	*	*	*	*	*	*	*	*	*	*	*	*
*	*xywh-#223:131,2773,1960,455	*	*	*	*	*	*	*	*	*	*	*	*	*	*	*	*	*	*	*	*	*	*	*	*	*
*	*	*xywh-#223:131,2773,1960,455	*	*	*	*	*	*	*	*	*	*	*	*	*	*	*	*	*	*	*	*	*	*	*	*
4D:/ 4F#: 4A:	2.GG:\	2.a^<\) 2.cc 2.aa	.	2.GG/]	.	.	2.G/	wprzód	.	2.g/	wprzód	.	2.dd\	wprzód	.	2.G\	-baw	.	1.ryy	.	2.cc\	-baw	.	2.aan\	-baw	.
8D/ 8d	.	.	.	.	.	.	.	.	.	.	.	.	.	.	.	.	.	.	.	.	.	.	.	.	.	.
8D/L 8d	.	.	.	.	.	.	.	.	.	.	.	.	.	.	.	.	.	.	.	.	.	.	.	.	.	.
8D/ 8d	.	.	.	.	.	.	.	.	.	.	.	.	.	.	.	.	.	.	.	.	.	.	.	.	.	.
8D/J 8d	.	.	.	.	.	.	.	.	.	.	.	.	.	.	.	.	.	.	.	.	.	.	.	.	.	.
!	!	!	!	!	!	!	!	!	!LO:DY:rj:b	!	!	!LO:DY:rj:b	!	!	!LO:DY:rj:b	!	!	!	!	!	!	!	!	!	!	!
4GG\ 4G	4ryy	2.g\ 2.b 2.gg	.	2.GG/	nie	.	4G/	a	pp	4g/	a	pp	4dd\	a	pp	2.G\	ten	.	.	.	2.bn\	ten	.	2.gg\	ten	.
8GG\ 8G	8ryy	.	.	.	.	.	8G/	zło-	.	8b\	zło-	.	8b\	zło-	.	.	.	.	.	.	.	.	.	.	.	.
8G/L	4.GG\	.	.	.	.	.	8G/	-czyń-	.	8b\	-czyń-	.	8b\	-czyń-	.	.	.	.	.	.	.	.	.	.	.	.
8B/	.	.	.	.	.	.	8G/	-com	.	8b\	-com	.	8b\	-com	.	.	.	.	.	.	.	.	.	.	.	.
8d/J	.	.	.	.	.	.	8G/	nie	.	8b\	nie	.	8b\	nie	.	.	.	.	.	.	.	.	.	.	.	.
*v	*v	*	*	*	*	*	*	*	*	*	*	*	*	*	*	*	*	*	*	*	*	*	*	*	*	*
=70	=70	=70	=70	=70	=70	=70	=70	=70	=70	=70	=70	=70	=70	=70	=70	=70	=70	=70	=70	=70	=70	=70	=70	=70	=70
2.G\ 2.g	2.b\ 2.gg	.	2.GG/	świeć!	.	2.G/	świeć!	.	2.bn\	świeć!	.	2.b\	świeć!	.	2.G\	kraj!	.	1.ryy	.	2.g/	kraj!	.	2.g\ 2.gg	kraj!	.
4ryy	4ryy	.	4ryy	.	.	4ryy	.	.	4ryy	.	.	4ryy	.	.	4ryy	.	.	.	.	4ryy	.	.	4ryy	.	.
2ryy	2ryy	.	2ryy	.	.	2ryy	.	.	2ryy	.	.	2ryy	.	.	2ryy	.	.	.	.	2ryy	.	.	2ryy	.	.
==	==	==	==	==	==	==	==	==	==	==	==	==	==	==	==	==	==	==	==	==	==	==	==	==	==
*-	*-	*-	*-	*-	*-	*-	*-	*-	*-	*-	*-	*-	*-	*-	*-	*-	*-	*-	*-	*-	*-	*-	*-	*-	*-
!!!system-decoration: s1,s2,s3,s4[(s5,s6,s7,s8)]{(s9,s10)}
!!!RDF**kern: > = above
!!!RDF**kern: < = below
!!!RDF**kern: | = vertical stroke
!!!ENC: Berenika Jozajtis
!!!END: 2022-02-27
!!!ENC: Krzysztof Stępień
!!!END: 2022-03-01
!!!ENC-iiif: Lidia Bialucha
!!!END-iiif: 2022-09-03
!!!YEC: Copyright 2022 Narodowy Instytut Fryderyka Chopina (https://polishscores.org)
!!!YEM: License CC-BY-4.0 (https://creativecommons.org/licenses/by/4.0)
